(.../pcb-gcode-3.6.0.4/pcb-gcode.ulp)
(Copyright 2005 - 2012 by John Johnson)
(See readme.txt for licensing terms.)
(This file generated from the board:)
(.../projects/EBN Retrofit/EBN Retrofit.brd)
(Current profile is .../pcb-gcode-3.6.0.4/profiles/generic.pp  )
(This file generated 1/21/2022 9:30 AM)
(Settings from pcb-machine.h)
(  Tool Size)
(0.1270 )
(Z Axis Settings)
(  High     Up        Down     Drill)
(12.7000 	2.4000 	-0.1000 	-1.6000 )
(spindle on time = 3.0000)
(milling depth = 0.1540)
(text depth = -0.1270)
(tool change at 0.0000 0.0000 20.0000 )
(feed rate xy = F100.00 )
(feed rate z  = F50.00 )
(Settings from pcb-defaults.h)
(isolate min = 0.0254)
(isolate max = 0.3080)
(isolate step = 0.0762)
(Generated top outlines, )
(Unit of measure: mm)
(Metric Mode)
G21
(Absolute Coordinates)
G90
G00 X0.0000 Y0.0000 
M03
G04 P3.000000
G00 Z2.400000
G00 X90.0000 Y88.8000 
G01 Z-1.6000 F50.00 
G01 Z2.400000
(R2.4000  P1.000000)
(G00 Z2.400000)
G00 X90.0000 Y27.8000 
G01 Z-1.600000
G01 Z2.400000
(G00 Z2.400000)
G00 X4.5000 Y28.0000 
G01 Z-1.600000
G01 Z2.400000
(G00 Z2.400000)
G00 X13.0000 Y88.8000 
G01 Z-1.600000
G01 Z2.400000
(G00 Z2.400000)
G00 X46.5000 Y102.0000 
G01 Z-1.600000
G01 Z2.400000
(G00 Z2.400000)
G00 X224.0000 Y70.0000 
G01 Z-1.600000
G01 Z2.400000
(G00 Z2.400000)
G00 X224.0000 Y12.0000 
G01 Z-1.600000
G01 Z2.400000
(G00 Z2.400000)
G00 X48.0000 Y12.0000 
G01 Z-1.600000
G01 Z2.400000
(G00 Z2.400000)
G00 X103.1600 Y13.1500 
G01 Z-1.600000
G01 Z2.400000
(G00 Z2.400000)
G00 X103.1600 Y5.8000 
G01 Z-1.600000
G01 Z2.400000
(G00 Z2.400000)
G00 X168.2100 Y101.4500 
G01 Z-1.600000
G01 Z2.400000
(G00 Z2.400000)
G00 X173.0100 Y98.4500 
G01 Z-1.600000
G01 Z2.400000
(G00 Z2.400000)
G00 X168.2100 Y95.4500 
G01 Z-1.600000
G01 Z2.400000
(G00 Z2.400000)
G00 X107.0041 Y31.1920 
G01 Z-1.600000
G01 Z2.400000
(G00 Z2.400000)
G00 X104.4641 Y31.1920 
G01 Z-1.600000
G01 Z2.400000
(G00 Z2.400000)
G00 X107.0041 Y33.7320 
G01 Z-1.600000
G01 Z2.400000
(G00 Z2.400000)
G00 X104.4641 Y33.7320 
G01 Z-1.600000
G01 Z2.400000
(G00 Z2.400000)
G00 X107.0041 Y36.2720 
G01 Z-1.600000
G01 Z2.400000
(G00 Z2.400000)
G00 X104.4641 Y36.2720 
G01 Z-1.600000
G01 Z2.400000
(G00 Z2.400000)
G00 X107.0041 Y38.8120 
G01 Z-1.600000
G01 Z2.400000
(G00 Z2.400000)
G00 X104.4641 Y38.8120 
G01 Z-1.600000
G01 Z2.400000
(G00 Z2.400000)
G00 X107.0041 Y41.3520 
G01 Z-1.600000
G01 Z2.400000
(G00 Z2.400000)
G00 X104.4641 Y41.3520 
G01 Z-1.600000
G01 Z2.400000
(G00 Z2.400000)
G00 X107.0041 Y43.8920 
G01 Z-1.600000
G01 Z2.400000
(G00 Z2.400000)
G00 X104.4641 Y43.8920 
G01 Z-1.600000
G01 Z2.400000
(G00 Z2.400000)
G00 X107.0041 Y46.4320 
G01 Z-1.600000
G01 Z2.400000
(G00 Z2.400000)
G00 X104.4641 Y46.4320 
G01 Z-1.600000
G01 Z2.400000
(G00 Z2.400000)
G00 X107.0041 Y48.9720 
G01 Z-1.600000
G01 Z2.400000
(G00 Z2.400000)
G00 X104.4641 Y48.9720 
G01 Z-1.600000
G01 Z2.400000
(G00 Z2.400000)
G00 X107.0041 Y51.5120 
G01 Z-1.600000
G01 Z2.400000
(G00 Z2.400000)
G00 X104.4641 Y51.5120 
G01 Z-1.600000
G01 Z2.400000
(G00 Z2.400000)
G00 X107.0041 Y54.0520 
G01 Z-1.600000
G01 Z2.400000
(G00 Z2.400000)
G00 X104.4641 Y54.0520 
G01 Z-1.600000
G01 Z2.400000
(G00 Z2.400000)
G00 X107.0041 Y56.5920 
G01 Z-1.600000
G01 Z2.400000
(G00 Z2.400000)
G00 X104.4641 Y56.5920 
G01 Z-1.600000
G01 Z2.400000
(G00 Z2.400000)
G00 X107.0041 Y59.1320 
G01 Z-1.600000
G01 Z2.400000
(G00 Z2.400000)
G00 X104.4641 Y59.1320 
G01 Z-1.600000
G01 Z2.400000
(G00 Z2.400000)
G00 X107.0041 Y61.6720 
G01 Z-1.600000
G01 Z2.400000
(G00 Z2.400000)
G00 X104.4641 Y61.6720 
G01 Z-1.600000
G01 Z2.400000
(G00 Z2.400000)
G00 X107.0041 Y64.2120 
G01 Z-1.600000
G01 Z2.400000
(G00 Z2.400000)
G00 X104.4641 Y64.2120 
G01 Z-1.600000
G01 Z2.400000
(G00 Z2.400000)
G00 X107.0041 Y66.7520 
G01 Z-1.600000
G01 Z2.400000
(G00 Z2.400000)
G00 X104.4641 Y66.7520 
G01 Z-1.600000
G01 Z2.400000
(G00 Z2.400000)
G00 X107.0041 Y69.2920 
G01 Z-1.600000
G01 Z2.400000
(G00 Z2.400000)
G00 X104.4641 Y69.2920 
G01 Z-1.600000
G01 Z2.400000
(G00 Z2.400000)
G00 X107.0041 Y71.8320 
G01 Z-1.600000
G01 Z2.400000
(G00 Z2.400000)
G00 X104.4641 Y71.8320 
G01 Z-1.600000
G01 Z2.400000
(G00 Z2.400000)
G00 X107.0041 Y74.3720 
G01 Z-1.600000
G01 Z2.400000
(G00 Z2.400000)
G00 X104.4641 Y74.3720 
G01 Z-1.600000
G01 Z2.400000
(G00 Z2.400000)
G00 X107.0041 Y76.9120 
G01 Z-1.600000
G01 Z2.400000
(G00 Z2.400000)
G00 X104.4641 Y76.9120 
G01 Z-1.600000
G01 Z2.400000
(G00 Z2.400000)
G00 X107.0041 Y79.4520 
G01 Z-1.600000
G01 Z2.400000
(G00 Z2.400000)
G00 X104.4641 Y79.4520 
G01 Z-1.600000
G01 Z2.400000
(G00 Z2.400000)
G00 X205.8000 Y65.5500 
G01 Z-1.600000
G01 Z2.400000
(G00 Z2.400000)
G00 X205.8000 Y63.0100 
G01 Z-1.600000
G01 Z2.400000
(G00 Z2.400000)
G00 X205.8000 Y60.4700 
G01 Z-1.600000
G01 Z2.400000
(G00 Z2.400000)
G00 X205.8000 Y57.9300 
G01 Z-1.600000
G01 Z2.400000
(G00 Z2.400000)
G00 X205.8000 Y55.3900 
G01 Z-1.600000
G01 Z2.400000
(G00 Z2.400000)
G00 X205.8000 Y52.8500 
G01 Z-1.600000
G01 Z2.400000
(G00 Z2.400000)
G00 X199.4500 Y49.6750 
G01 Z-1.600000
G01 Z2.400000
(G00 Z2.400000)
G00 X199.4500 Y68.7250 
G01 Z-1.600000
G01 Z2.400000
(G00 Z2.400000)
G00 X176.6890 Y88.6740 
G01 Z-1.600000
G01 Z2.400000
(G00 Z2.400000)
G00 X176.6890 Y91.2140 
G01 Z-1.600000
G01 Z2.400000
(G00 Z2.400000)
G00 X176.6890 Y78.0060 
G01 Z-1.600000
G01 Z2.400000
(G00 Z2.400000)
G00 X176.6890 Y80.5460 
G01 Z-1.600000
G01 Z2.400000
(G00 Z2.400000)
G00 X195.2310 Y88.6740 
G01 Z-1.600000
G01 Z2.400000
(G00 Z2.400000)
G00 X195.2310 Y91.2140 
G01 Z-1.600000
G01 Z2.400000
(G00 Z2.400000)
G00 X195.2310 Y78.0060 
G01 Z-1.600000
G01 Z2.400000
(G00 Z2.400000)
G00 X195.2310 Y80.5460 
G01 Z-1.600000
G01 Z2.400000
(G00 Z2.400000)
G00 X188.1940 Y37.9410 
G01 Z-1.600000
G01 Z2.400000
(G00 Z2.400000)
G00 X190.7340 Y37.9410 
G01 Z-1.600000
G01 Z2.400000
(G00 Z2.400000)
G00 X177.5260 Y37.9410 
G01 Z-1.600000
G01 Z2.400000
(G00 Z2.400000)
G00 X180.0660 Y37.9410 
G01 Z-1.600000
G01 Z2.400000
(G00 Z2.400000)
G00 X188.1940 Y19.3990 
G01 Z-1.600000
G01 Z2.400000
(G00 Z2.400000)
G00 X190.7340 Y19.3990 
G01 Z-1.600000
G01 Z2.400000
(G00 Z2.400000)
G00 X177.5260 Y19.3990 
G01 Z-1.600000
G01 Z2.400000
(G00 Z2.400000)
G00 X180.0660 Y19.3990 
G01 Z-1.600000
G01 Z2.400000
(G00 Z2.400000)
G00 X105.7252 Y26.3220 
G01 Z-1.600000
G01 Z2.400000
(G00 Z2.400000)
G00 X105.7252 Y84.3220 
G01 Z-1.600000
G01 Z2.400000
(G00 Z2.400000)
G00 X154.7252 Y84.3220 
G01 Z-1.600000
G01 Z2.400000
(G00 Z2.400000)
G00 X154.7252 Y26.3220 
G01 Z-1.600000
G01 Z2.400000
G00 Z2.4000 
G00 X107.0292 Y82.3704 
G01 Z-0.1000 F50.00 
G01 X106.1831 Y82.0199 F100.00 
G01 X105.2673 Y82.0199 
G01 X104.4212 Y82.3704 
G01 X103.7736 Y83.0180 
G01 X103.4231 Y83.8641 
G01 X103.4231 Y84.7799 
G01 X103.7736 Y85.6260 
G01 X104.4212 Y86.2736 
G01 X105.2673 Y86.6241 
G01 X106.1831 Y86.6241 
G01 X107.0292 Y86.2736 
G01 X107.6768 Y85.6260 
G01 X108.0273 Y84.7799 
G01 X108.0273 Y83.8641 
G01 X107.6768 Y83.0180 
G01 X107.0292 Y82.3704 
G00 Z2.4000 
G00 X200.5983 Y47.9565 
G01 Z-0.1000 F50.00 
G01 X199.8532 Y47.6479 F100.00 
G01 X199.0468 Y47.6479 
G01 X198.3017 Y47.9565 
G01 X197.7315 Y48.5267 
G01 X197.4229 Y49.2718 
G01 X197.4229 Y50.0782 
G01 X197.7315 Y50.8233 
G01 X198.3017 Y51.3935 
G01 X199.0468 Y51.7021 
G01 X199.8532 Y51.7021 
G01 X200.5983 Y51.3935 
G01 X201.1685 Y50.8233 
G01 X201.4771 Y50.0782 
G01 X201.4771 Y49.2718 
G01 X201.1685 Y48.5267 
G01 X200.5983 Y47.9565 
G00 Z2.4000 
G00 X104.4046 Y5.2845 
G01 Z-0.1000 F50.00 
G01 X103.6755 Y4.5554 F100.00 
G01 X103.4013 Y4.5554 
G01 X103.4013 Y4.6316 
G01 X103.6440 Y4.6316 
G01 X104.3284 Y5.3160 
G01 X104.3284 Y5.5587 
G01 X104.4046 Y5.5587 
G01 X104.4046 Y5.2845 
G00 Z2.4000 
G00 X101.9916 Y6.0413 
G01 Z-0.1000 F50.00 
G01 X101.9154 Y6.0413 F100.00 
G01 X101.9154 Y6.2903 
G01 X101.9916 Y6.2141 
G01 X101.9916 Y6.0413 
G00 Z2.4000 
G00 X102.9187 Y7.0446 
G01 Z-0.1000 F50.00 
G01 X102.9187 Y6.9684 F100.00 
G01 X102.7459 Y6.9684 
G01 X102.6697 Y7.0446 
G01 X102.9187 Y7.0446 
G00 Z2.4000 
G00 X101.9154 Y5.5587 
G01 Z-0.1000 F50.00 
G01 X101.9916 Y5.5587 F100.00 
G01 X101.9916 Y5.3160 
G01 X102.6760 Y4.6316 
G01 X102.9187 Y4.6316 
G01 X102.9187 Y4.5554 
G01 X102.6445 Y4.5554 
G01 X101.9154 Y5.2845 
G01 X101.9154 Y5.5587 
G00 Z2.4000 
G00 X103.6755 Y7.0446 
G01 Z-0.1000 F50.00 
G01 X104.4046 Y6.3155 F100.00 
G01 X104.4046 Y6.0413 
G01 X104.3284 Y6.0413 
G01 X104.3284 Y6.2840 
G01 X103.6440 Y6.9684 
G01 X103.4013 Y6.9684 
G01 X103.4013 Y7.0446 
G01 X103.6755 Y7.0446 
G00 Z2.4000 
G00 X48.8423 Y100.2027 
G01 Z-0.1000 F50.00 
G01 X48.2973 Y99.6577 F100.00 
G01 X47.6298 Y99.2724 
G01 X46.8854 Y99.0729 
G01 X46.1146 Y99.0729 
G01 X45.3702 Y99.2724 
G01 X44.7027 Y99.6577 
G01 X44.1577 Y100.2027 
G01 X43.7724 Y100.8702 
G01 X43.5729 Y101.6146 
G01 X43.5729 Y102.3854 
G01 X43.7724 Y103.1298 
G01 X44.1577 Y103.7973 
G01 X44.7027 Y104.3423 
G01 X45.3702 Y104.7276 
G01 X46.1146 Y104.9271 
G01 X46.8854 Y104.9271 
G01 X47.6298 Y104.7276 
G01 X48.2973 Y104.3423 
G01 X48.8423 Y103.7973 
G01 X49.2276 Y103.1298 
G01 X49.4271 Y102.3854 
G01 X49.4271 Y101.6146 
G01 X49.2276 Y100.8702 
G01 X48.8423 Y100.2027 
G00 Z2.4000 
G00 X92.3423 Y26.0027 
G01 Z-0.1000 F50.00 
G01 X91.7973 Y25.4577 F100.00 
G01 X91.1298 Y25.0724 
G01 X90.3854 Y24.8729 
G01 X89.6146 Y24.8729 
G01 X88.8702 Y25.0724 
G01 X88.2027 Y25.4577 
G01 X87.6577 Y26.0027 
G01 X87.2724 Y26.6702 
G01 X87.2573 Y26.7265 
G01 X87.2573 Y26.7376 
G01 X87.2489 Y26.7579 
G01 X87.2432 Y26.7792 
G01 X87.2364 Y26.7880 
G01 X87.2322 Y26.7983 
G01 X87.2166 Y26.8138 
G01 X87.2032 Y26.8313 
G01 X87.1936 Y26.8368 
G01 X87.1857 Y26.8447 
G01 X87.1654 Y26.8531 
G01 X87.1463 Y26.8641 
G01 X87.1353 Y26.8656 
G01 X87.1250 Y26.8698 
G01 X87.1030 Y26.8698 
G01 X87.0812 Y26.8727 
G01 X87.0705 Y26.8698 
G01 X87.0594 Y26.8698 
G01 X87.0390 Y26.8614 
G01 X87.0177 Y26.8557 
G01 X87.0089 Y26.8489 
G01 X86.9987 Y26.8447 
G01 X86.9831 Y26.8291 
G01 X86.9656 Y26.8157 
G01 X86.9601 Y26.8061 
G01 X86.9522 Y26.7983 
G01 X86.9438 Y26.7779 
G01 X86.9328 Y26.7588 
G01 X86.9313 Y26.7478 
G01 X86.9271 Y26.7376 
G01 X86.9271 Y26.7156 
G01 X86.9242 Y26.6937 
G01 X86.9271 Y26.6830 
G01 X86.9271 Y15.8156 
G01 X86.7860 Y15.4748 
G01 X86.5252 Y15.2140 
G01 X86.1844 Y15.0729 
G01 X49.1170 Y15.0729 
G01 X49.1063 Y15.0758 
G01 X49.0844 Y15.0729 
G01 X49.0624 Y15.0729 
G01 X49.0522 Y15.0686 
G01 X49.0412 Y15.0672 
G01 X49.0221 Y15.0562 
G01 X49.0017 Y15.0478 
G01 X48.9939 Y15.0399 
G01 X48.9843 Y15.0344 
G01 X48.9709 Y15.0169 
G01 X48.9553 Y15.0013 
G01 X48.9511 Y14.9911 
G01 X48.9443 Y14.9822 
G01 X48.9386 Y14.9610 
G01 X48.9302 Y14.9406 
G01 X48.9302 Y14.9295 
G01 X48.9273 Y14.9188 
G01 X48.9302 Y14.8970 
G01 X48.9302 Y14.8750 
G01 X48.9344 Y14.8647 
G01 X48.9359 Y14.8537 
G01 X48.9469 Y14.8346 
G01 X48.9553 Y14.8143 
G01 X48.9632 Y14.8064 
G01 X48.9687 Y14.7968 
G01 X48.9862 Y14.7834 
G01 X49.0017 Y14.7678 
G01 X49.0120 Y14.7636 
G01 X49.0208 Y14.7568 
G01 X49.0421 Y14.7511 
G01 X49.0624 Y14.7427 
G01 X49.0735 Y14.7427 
G01 X49.1298 Y14.7276 
G01 X49.7973 Y14.3423 
G01 X50.3423 Y13.7973 
G01 X50.7276 Y13.1298 
G01 X50.9271 Y12.3854 
G01 X50.9271 Y11.6146 
G01 X50.7276 Y10.8702 
G01 X50.3423 Y10.2027 
G01 X49.7973 Y9.6577 
G01 X49.1298 Y9.2724 
G01 X48.3854 Y9.0729 
G01 X47.6146 Y9.0729 
G01 X46.8702 Y9.2724 
G01 X46.2027 Y9.6577 
G01 X45.6577 Y10.2027 
G01 X45.2724 Y10.8702 
G01 X45.0729 Y11.6146 
G01 X45.0729 Y12.3854 
G01 X45.2724 Y13.1298 
G01 X45.6577 Y13.7973 
G01 X46.2027 Y14.3423 
G01 X46.8702 Y14.7276 
G01 X46.9265 Y14.7427 
G01 X46.9376 Y14.7427 
G01 X46.9579 Y14.7511 
G01 X46.9792 Y14.7568 
G01 X46.9880 Y14.7636 
G01 X46.9982 Y14.7678 
G01 X47.0138 Y14.7834 
G01 X47.0313 Y14.7968 
G01 X47.0368 Y14.8064 
G01 X47.0447 Y14.8143 
G01 X47.0531 Y14.8346 
G01 X47.0641 Y14.8537 
G01 X47.0656 Y14.8647 
G01 X47.0698 Y14.8750 
G01 X47.0698 Y14.8970 
G01 X47.0727 Y14.9188 
G01 X47.0698 Y14.9295 
G01 X47.0698 Y14.9406 
G01 X47.0614 Y14.9610 
G01 X47.0557 Y14.9822 
G01 X47.0489 Y14.9911 
G01 X47.0447 Y15.0013 
G01 X47.0291 Y15.0169 
G01 X47.0157 Y15.0344 
G01 X47.0061 Y15.0399 
G01 X46.9982 Y15.0478 
G01 X46.9779 Y15.0562 
G01 X46.9588 Y15.0672 
G01 X46.9478 Y15.0686 
G01 X46.9376 Y15.0729 
G01 X46.9156 Y15.0729 
G01 X46.8937 Y15.0758 
G01 X46.8830 Y15.0729 
G01 X16.8156 Y15.0729 
G01 X16.4748 Y15.2140 
G01 X16.2140 Y15.4748 
G01 X16.0729 Y15.8156 
G01 X16.0729 Y87.6830 
G01 X16.0758 Y87.6937 
G01 X16.0729 Y87.7156 
G01 X16.0729 Y87.7376 
G01 X16.0686 Y87.7478 
G01 X16.0672 Y87.7588 
G01 X16.0562 Y87.7779 
G01 X16.0478 Y87.7983 
G01 X16.0399 Y87.8061 
G01 X16.0344 Y87.8157 
G01 X16.0169 Y87.8291 
G01 X16.0013 Y87.8447 
G01 X15.9911 Y87.8489 
G01 X15.9822 Y87.8557 
G01 X15.9610 Y87.8614 
G01 X15.9406 Y87.8698 
G01 X15.9295 Y87.8698 
G01 X15.9188 Y87.8727 
G01 X15.8970 Y87.8698 
G01 X15.8750 Y87.8698 
G01 X15.8647 Y87.8656 
G01 X15.8537 Y87.8641 
G01 X15.8346 Y87.8531 
G01 X15.8143 Y87.8447 
G01 X15.8064 Y87.8368 
G01 X15.7968 Y87.8313 
G01 X15.7834 Y87.8138 
G01 X15.7678 Y87.7983 
G01 X15.7636 Y87.7880 
G01 X15.7568 Y87.7792 
G01 X15.7511 Y87.7579 
G01 X15.7427 Y87.7376 
G01 X15.7427 Y87.7265 
G01 X15.7276 Y87.6702 
G01 X15.3423 Y87.0027 
G01 X14.7973 Y86.4577 
G01 X14.1298 Y86.0724 
G01 X13.3854 Y85.8729 
G01 X12.6146 Y85.8729 
G01 X11.8702 Y86.0724 
G01 X11.2027 Y86.4577 
G01 X10.6577 Y87.0027 
G01 X10.2724 Y87.6702 
G01 X10.0729 Y88.4146 
G01 X10.0729 Y89.1854 
G01 X10.2724 Y89.9298 
G01 X10.6577 Y90.5973 
G01 X11.2027 Y91.1423 
G01 X11.8702 Y91.5276 
G01 X12.6146 Y91.7271 
G01 X13.3854 Y91.7271 
G01 X14.1298 Y91.5276 
G01 X14.7973 Y91.1423 
G01 X15.3423 Y90.5973 
G01 X15.7276 Y89.9298 
G01 X15.8530 Y89.4618 
G01 X15.8530 Y89.4507 
G01 X15.8614 Y89.4304 
G01 X15.8671 Y89.4091 
G01 X15.8739 Y89.4003 
G01 X15.8782 Y89.3900 
G01 X15.8937 Y89.3745 
G01 X15.9071 Y89.3570 
G01 X15.9167 Y89.3515 
G01 X15.9246 Y89.3436 
G01 X15.9449 Y89.3352 
G01 X15.9640 Y89.3242 
G01 X15.9750 Y89.3227 
G01 X15.9853 Y89.3185 
G01 X16.0073 Y89.3185 
G01 X16.0291 Y89.3156 
G01 X16.0399 Y89.3185 
G01 X16.0510 Y89.3185 
G01 X16.0713 Y89.3269 
G01 X16.0926 Y89.3326 
G01 X16.1014 Y89.3394 
G01 X16.1116 Y89.3436 
G01 X16.1272 Y89.3592 
G01 X16.1447 Y89.3726 
G01 X16.1502 Y89.3822 
G01 X16.1581 Y89.3900 
G01 X16.1665 Y89.4104 
G01 X16.1775 Y89.4295 
G01 X16.1790 Y89.4405 
G01 X16.2140 Y89.5252 
G01 X16.4748 Y89.7860 
G01 X16.8156 Y89.9271 
G01 X86.1844 Y89.9271 
G01 X86.5252 Y89.7860 
G01 X86.7860 Y89.5252 
G01 X86.8210 Y89.4405 
G01 X86.8225 Y89.4295 
G01 X86.8335 Y89.4104 
G01 X86.8419 Y89.3900 
G01 X86.8498 Y89.3822 
G01 X86.8553 Y89.3726 
G01 X86.8728 Y89.3592 
G01 X86.8884 Y89.3436 
G01 X86.8986 Y89.3394 
G01 X86.9074 Y89.3326 
G01 X86.9287 Y89.3269 
G01 X86.9490 Y89.3185 
G01 X86.9601 Y89.3185 
G01 X86.9709 Y89.3156 
G01 X86.9927 Y89.3185 
G01 X87.0147 Y89.3185 
G01 X87.0250 Y89.3227 
G01 X87.0360 Y89.3242 
G01 X87.0550 Y89.3352 
G01 X87.0754 Y89.3436 
G01 X87.0833 Y89.3515 
G01 X87.0929 Y89.3570 
G01 X87.1063 Y89.3745 
G01 X87.1218 Y89.3900 
G01 X87.1261 Y89.4003 
G01 X87.1329 Y89.4091 
G01 X87.1386 Y89.4304 
G01 X87.1470 Y89.4507 
G01 X87.1470 Y89.4618 
G01 X87.2724 Y89.9298 
G01 X87.6577 Y90.5973 
G01 X88.2027 Y91.1423 
G01 X88.8702 Y91.5276 
G01 X89.6146 Y91.7271 
G01 X90.3854 Y91.7271 
G01 X91.1298 Y91.5276 
G01 X91.7973 Y91.1423 
G01 X92.3423 Y90.5973 
G01 X92.7276 Y89.9298 
G01 X92.9271 Y89.1854 
G01 X92.9271 Y88.4146 
G01 X92.7276 Y87.6702 
G01 X92.3423 Y87.0027 
G01 X91.7973 Y86.4577 
G01 X91.1298 Y86.0724 
G01 X90.3854 Y85.8729 
G01 X89.6146 Y85.8729 
G01 X88.8702 Y86.0724 
G01 X88.2027 Y86.4577 
G01 X87.6577 Y87.0027 
G01 X87.2724 Y87.6702 
G01 X87.2573 Y87.7265 
G01 X87.2573 Y87.7376 
G01 X87.2489 Y87.7579 
G01 X87.2432 Y87.7792 
G01 X87.2364 Y87.7880 
G01 X87.2322 Y87.7983 
G01 X87.2166 Y87.8138 
G01 X87.2032 Y87.8313 
G01 X87.1936 Y87.8368 
G01 X87.1857 Y87.8447 
G01 X87.1654 Y87.8531 
G01 X87.1463 Y87.8641 
G01 X87.1353 Y87.8656 
G01 X87.1250 Y87.8698 
G01 X87.1030 Y87.8698 
G01 X87.0812 Y87.8727 
G01 X87.0705 Y87.8698 
G01 X87.0594 Y87.8698 
G01 X87.0390 Y87.8614 
G01 X87.0177 Y87.8557 
G01 X87.0089 Y87.8489 
G01 X86.9987 Y87.8447 
G01 X86.9831 Y87.8291 
G01 X86.9656 Y87.8157 
G01 X86.9601 Y87.8061 
G01 X86.9522 Y87.7983 
G01 X86.9438 Y87.7779 
G01 X86.9328 Y87.7588 
G01 X86.9313 Y87.7478 
G01 X86.9271 Y87.7376 
G01 X86.9271 Y87.7156 
G01 X86.9242 Y87.6937 
G01 X86.9271 Y87.6830 
G01 X86.9271 Y28.9170 
G01 X86.9242 Y28.9063 
G01 X86.9271 Y28.8844 
G01 X86.9271 Y28.8624 
G01 X86.9313 Y28.8522 
G01 X86.9328 Y28.8412 
G01 X86.9438 Y28.8221 
G01 X86.9522 Y28.8017 
G01 X86.9601 Y28.7939 
G01 X86.9656 Y28.7843 
G01 X86.9831 Y28.7709 
G01 X86.9987 Y28.7553 
G01 X87.0089 Y28.7511 
G01 X87.0177 Y28.7443 
G01 X87.0390 Y28.7386 
G01 X87.0594 Y28.7302 
G01 X87.0705 Y28.7302 
G01 X87.0812 Y28.7273 
G01 X87.1030 Y28.7302 
G01 X87.1250 Y28.7302 
G01 X87.1353 Y28.7344 
G01 X87.1463 Y28.7359 
G01 X87.1654 Y28.7469 
G01 X87.1857 Y28.7553 
G01 X87.1936 Y28.7632 
G01 X87.2032 Y28.7687 
G01 X87.2166 Y28.7862 
G01 X87.2322 Y28.8017 
G01 X87.2364 Y28.8120 
G01 X87.2432 Y28.8208 
G01 X87.2489 Y28.8421 
G01 X87.2573 Y28.8624 
G01 X87.2573 Y28.8735 
G01 X87.2724 Y28.9298 
G01 X87.6577 Y29.5973 
G01 X88.2027 Y30.1423 
G01 X88.8702 Y30.5276 
G01 X89.6146 Y30.7271 
G01 X90.3854 Y30.7271 
G01 X91.1298 Y30.5276 
G01 X91.7973 Y30.1423 
G01 X92.3423 Y29.5973 
G01 X92.7276 Y28.9298 
G01 X92.9271 Y28.1854 
G01 X92.9271 Y27.4146 
G01 X92.7276 Y26.6702 
G01 X92.3423 Y26.0027 
G00 Z2.4000 
G00 X194.0946 Y78.2788 
G01 Z-0.1000 F50.00 
G01 X194.1513 Y78.4532 F100.00 
G01 X194.2345 Y78.6167 
G01 X194.3423 Y78.7650 
G01 X194.4720 Y78.8947 
G01 X194.4861 Y78.9011 
G01 X194.5002 Y78.9152 
G01 X194.5162 Y78.9268 
G01 X194.5232 Y78.9382 
G01 X194.5326 Y78.9476 
G01 X194.5402 Y78.9659 
G01 X194.5505 Y78.9828 
G01 X194.5526 Y78.9960 
G01 X194.5577 Y79.0082 
G01 X194.5577 Y79.0281 
G01 X194.5608 Y79.0477 
G01 X194.5577 Y79.0606 
G01 X194.5577 Y79.0739 
G01 X194.5501 Y79.0923 
G01 X194.5455 Y79.1116 
G01 X194.5377 Y79.1223 
G01 X194.5326 Y79.1346 
G01 X194.5185 Y79.1486 
G01 X194.5069 Y79.1647 
G01 X194.4955 Y79.1716 
G01 X194.4861 Y79.1811 
G01 X194.4678 Y79.1887 
G01 X194.4509 Y79.1990 
G01 X194.4377 Y79.2011 
G01 X194.3552 Y79.2353 
G01 X193.9203 Y79.6702 
G01 X193.6849 Y80.2385 
G01 X193.6849 Y80.8535 
G01 X193.9203 Y81.4218 
G01 X194.3552 Y81.8567 
G01 X194.9235 Y82.0921 
G01 X195.5385 Y82.0921 
G01 X196.1068 Y81.8567 
G01 X196.5417 Y81.4218 
G01 X196.7771 Y80.8535 
G01 X196.7771 Y80.2385 
G01 X196.5417 Y79.6702 
G01 X196.1068 Y79.2353 
G01 X196.0243 Y79.2011 
G01 X196.0111 Y79.1990 
G01 X195.9942 Y79.1886 
G01 X195.9759 Y79.1811 
G01 X195.9665 Y79.1716 
G01 X195.9551 Y79.1647 
G01 X195.9435 Y79.1486 
G01 X195.9294 Y79.1346 
G01 X195.9243 Y79.1223 
G01 X195.9165 Y79.1116 
G01 X195.9119 Y79.0923 
G01 X195.9043 Y79.0739 
G01 X195.9043 Y79.0606 
G01 X195.9012 Y79.0477 
G01 X195.9043 Y79.0281 
G01 X195.9043 Y79.0082 
G01 X195.9094 Y78.9960 
G01 X195.9115 Y78.9828 
G01 X195.9218 Y78.9659 
G01 X195.9294 Y78.9476 
G01 X195.9388 Y78.9382 
G01 X195.9458 Y78.9268 
G01 X195.9618 Y78.9151 
G01 X195.9759 Y78.9011 
G01 X195.9882 Y78.8960 
G01 X196.1197 Y78.7650 
G01 X196.2275 Y78.6167 
G01 X196.2668 Y78.5394 
G01 X196.1813 Y78.5394 
G01 X196.1623 Y78.5767 
G01 X196.0616 Y78.7154 
G01 X195.9404 Y78.8366 
G01 X195.8017 Y78.9373 
G01 X195.6490 Y79.0151 
G01 X195.4860 Y79.0681 
G01 X195.3167 Y79.0949 
G01 X195.1453 Y79.0949 
G01 X194.9760 Y79.0681 
G01 X194.8130 Y79.0151 
G01 X194.6603 Y78.9373 
G01 X194.5216 Y78.8366 
G01 X194.4004 Y78.7154 
G01 X194.2997 Y78.5767 
G01 X194.2219 Y78.4240 
G01 X194.1689 Y78.2610 
G01 X194.1667 Y78.2473 
G01 X194.0896 Y78.2473 
G01 X194.0946 Y78.2788 
G00 Z2.4000 
G00 X196.3199 Y80.4603 
G01 Z-0.1000 F50.00 
G01 X196.3199 Y80.6317 F100.00 
G01 X196.2931 Y80.8010 
G01 X196.2401 Y80.9640 
G01 X196.1623 Y81.1167 
G01 X196.0616 Y81.2554 
G01 X195.9404 Y81.3766 
G01 X195.8017 Y81.4773 
G01 X195.6490 Y81.5551 
G01 X195.4860 Y81.6081 
G01 X195.3167 Y81.6349 
G01 X195.1453 Y81.6349 
G01 X194.9760 Y81.6081 
G01 X194.8130 Y81.5551 
G01 X194.6603 Y81.4773 
G01 X194.5216 Y81.3766 
G01 X194.4004 Y81.2554 
G01 X194.2997 Y81.1167 
G01 X194.2219 Y80.9640 
G01 X194.1689 Y80.8010 
G01 X194.1421 Y80.6317 
G01 X194.1421 Y80.4603 
G01 X194.1689 Y80.2910 
G01 X194.2219 Y80.1280 
G01 X194.2997 Y79.9753 
G01 X194.4004 Y79.8366 
G01 X194.5216 Y79.7154 
G01 X194.6603 Y79.6147 
G01 X194.8130 Y79.5369 
G01 X194.9760 Y79.4839 
G01 X195.1453 Y79.4571 
G01 X195.3167 Y79.4571 
G01 X195.4860 Y79.4839 
G01 X195.6490 Y79.5369 
G01 X195.8017 Y79.6147 
G01 X195.9404 Y79.7154 
G01 X196.0616 Y79.8366 
G01 X196.1623 Y79.9753 
G01 X196.2401 Y80.1280 
G01 X196.2931 Y80.2910 
G01 X196.3199 Y80.4603 
G00 Z2.4000 
G00 X195.4860 Y76.9439 
G01 Z-0.1000 F50.00 
G01 X195.6490 Y76.9969 F100.00 
G01 X195.8017 Y77.0747 
G01 X195.9404 Y77.1754 
G01 X196.0616 Y77.2966 
G01 X196.1623 Y77.4353 
G01 X196.1813 Y77.4726 
G01 X196.2668 Y77.4726 
G01 X196.2275 Y77.3953 
G01 X196.1197 Y77.2470 
G01 X195.9900 Y77.1173 
G01 X195.8417 Y77.0095 
G01 X195.6783 Y76.9263 
G01 X195.5038 Y76.8696 
G01 X195.4723 Y76.8646 
G01 X195.4723 Y76.9417 
G01 X195.4860 Y76.9439 
G00 Z2.4000 
G00 X203.8070 Y51.7324 
G01 Z-0.1000 F50.00 
G01 X203.6333 Y51.7599 F100.00 
G01 X203.4660 Y51.8143 
G01 X203.3092 Y51.8941 
G01 X203.1669 Y51.9975 
G01 X203.0425 Y52.1219 
G01 X202.9391 Y52.2642 
G01 X202.9125 Y52.3166 
G01 X202.9980 Y52.3166 
G01 X203.0043 Y52.3042 
G01 X203.1007 Y52.1716 
G01 X203.2166 Y52.0557 
G01 X203.3492 Y51.9593 
G01 X203.4952 Y51.8849 
G01 X203.6511 Y51.8342 
G01 X203.8130 Y51.8086 
G01 X205.5587 Y51.8086 
G01 X205.5587 Y51.7324 
G01 X203.8070 Y51.7324 
G00 Z2.4000 
G00 X206.8357 Y52.4210 
G01 Z-0.1000 F50.00 
G01 X206.7559 Y52.2642 F100.00 
G01 X206.6525 Y52.1219 
G01 X206.5281 Y51.9975 
G01 X206.3858 Y51.8941 
G01 X206.2290 Y51.8143 
G01 X206.0617 Y51.7599 
G01 X206.0413 Y51.7567 
G01 X206.0413 Y51.8338 
G01 X206.0439 Y51.8342 
G01 X206.1998 Y51.8849 
G01 X206.3458 Y51.9593 
G01 X206.4784 Y52.0557 
G01 X206.5943 Y52.1716 
G01 X206.6907 Y52.3042 
G01 X206.7651 Y52.4502 
G01 X206.8158 Y52.6061 
G01 X206.8162 Y52.6087 
G01 X206.8933 Y52.6087 
G01 X206.8901 Y52.5883 
G01 X206.8357 Y52.4210 
G00 Z2.4000 
G00 X108.9850 Y80.4807 
G01 Z-0.1000 F50.00 
G01 X107.2454 Y80.4807 F100.00 
G01 X107.2454 Y80.5569 
G01 X108.9707 Y80.5569 
G01 X109.1424 Y80.5297 
G01 X109.3079 Y80.4760 
G01 X109.4628 Y80.3970 
G01 X109.6035 Y80.2948 
G01 X109.7265 Y80.1718 
G01 X109.8287 Y80.0311 
G01 X109.8520 Y79.9854 
G01 X109.7645 Y79.9854 
G01 X109.6828 Y80.1078 
G01 X109.5395 Y80.2511 
G01 X109.3710 Y80.3637 
G01 X109.1838 Y80.4412 
G01 X108.9850 Y80.4807 
G00 Z2.4000 
G00 X176.4162 Y76.8696 
G01 Z-0.1000 F50.00 
G01 X176.2417 Y76.9263 F100.00 
G01 X176.0783 Y77.0095 
G01 X175.9300 Y77.1173 
G01 X175.8003 Y77.2470 
G01 X175.6925 Y77.3953 
G01 X175.6532 Y77.4726 
G01 X175.7387 Y77.4726 
G01 X175.7577 Y77.4353 
G01 X175.8584 Y77.2966 
G01 X175.9796 Y77.1754 
G01 X176.1183 Y77.0747 
G01 X176.2710 Y76.9969 
G01 X176.4340 Y76.9439 
G01 X176.4477 Y76.9417 
G01 X176.4477 Y76.8646 
G01 X176.4162 Y76.8696 
G00 Z2.4000 
G00 X176.3896 Y38.2138 
G01 Z-0.1000 F50.00 
G01 X176.4463 Y38.3882 F100.00 
G01 X176.5295 Y38.5517 
G01 X176.6373 Y38.7000 
G01 X176.7670 Y38.8297 
G01 X176.9153 Y38.9375 
G01 X176.9926 Y38.9768 
G01 X176.9926 Y38.8913 
G01 X176.9553 Y38.8723 
G01 X176.8166 Y38.7716 
G01 X176.6954 Y38.6504 
G01 X176.5947 Y38.5117 
G01 X176.5169 Y38.3590 
G01 X176.4639 Y38.1960 
G01 X176.4617 Y38.1823 
G01 X176.3846 Y38.1823 
G01 X176.3896 Y38.2138 
G00 Z2.4000 
G00 X176.6373 Y18.6400 
G01 Z-0.1000 F50.00 
G01 X176.5295 Y18.7883 F100.00 
G01 X176.4463 Y18.9517 
G01 X176.3896 Y19.1262 
G01 X176.3846 Y19.1577 
G01 X176.4617 Y19.1577 
G01 X176.4639 Y19.1440 
G01 X176.5169 Y18.9810 
G01 X176.5947 Y18.8283 
G01 X176.6954 Y18.6896 
G01 X176.8154 Y18.5697 
G01 X176.7615 Y18.5158 
G01 X176.6373 Y18.6400 
G00 Z2.4000 
G00 X176.3896 Y19.6718 
G01 Z-0.1000 F50.00 
G01 X176.4463 Y19.8463 F100.00 
G01 X176.5295 Y20.0097 
G01 X176.6373 Y20.1580 
G01 X176.7670 Y20.2877 
G01 X176.9153 Y20.3955 
G01 X177.0787 Y20.4787 
G01 X177.2532 Y20.5354 
G01 X177.2847 Y20.5404 
G01 X177.2847 Y20.4633 
G01 X177.2710 Y20.4611 
G01 X177.1080 Y20.4081 
G01 X176.9553 Y20.3303 
G01 X176.8166 Y20.2296 
G01 X176.6954 Y20.1084 
G01 X176.5947 Y19.9697 
G01 X176.5169 Y19.8170 
G01 X176.4639 Y19.6540 
G01 X176.4617 Y19.6403 
G01 X176.3846 Y19.6403 
G01 X176.3896 Y19.6718 
G00 Z2.4000 
G00 X170.5285 Y101.1556 
G01 Z-0.1000 F50.00 
G01 X170.4674 Y100.9674 F100.00 
G01 X170.3775 Y100.7910 
G01 X170.2612 Y100.6309 
G01 X170.1213 Y100.4910 
G01 X169.9612 Y100.3747 
G01 X169.7848 Y100.2848 
G01 X169.5966 Y100.2237 
G01 X169.4011 Y100.1927 
G01 X168.4513 Y100.1927 
G01 X168.4513 Y100.2689 
G01 X169.3952 Y100.2689 
G01 X169.5788 Y100.2980 
G01 X169.7556 Y100.3554 
G01 X169.9212 Y100.4398 
G01 X170.0716 Y100.5491 
G01 X170.2031 Y100.6806 
G01 X170.3124 Y100.8310 
G01 X170.3968 Y100.9966 
G01 X170.4542 Y101.1734 
G01 X170.4598 Y101.2087 
G01 X170.5370 Y101.2087 
G01 X170.5285 Y101.1556 
G00 Z2.4000 
G00 X166.0425 Y102.1090 
G01 Z-0.1000 F50.00 
G01 X166.1588 Y102.2691 F100.00 
G01 X166.2987 Y102.4090 
G01 X166.4588 Y102.5253 
G01 X166.6352 Y102.6152 
G01 X166.8234 Y102.6763 
G01 X167.0189 Y102.7073 
G01 X167.9687 Y102.7073 
G01 X167.9687 Y102.6311 
G01 X167.0248 Y102.6311 
G01 X166.8412 Y102.6020 
G01 X166.6644 Y102.5446 
G01 X166.4988 Y102.4602 
G01 X166.3484 Y102.3509 
G01 X166.2169 Y102.2194 
G01 X166.1076 Y102.0690 
G01 X166.0640 Y101.9834 
G01 X165.9785 Y101.9834 
G01 X166.0425 Y102.1090 
G00 Z2.4000 
G00 X169.4011 Y102.7073 
G01 Z-0.1000 F50.00 
G01 X169.5966 Y102.6763 F100.00 
G01 X169.7848 Y102.6152 
G01 X169.9612 Y102.5253 
G01 X170.1213 Y102.4090 
G01 X170.2612 Y102.2691 
G01 X170.3775 Y102.1090 
G01 X170.4674 Y101.9326 
G01 X170.5285 Y101.7444 
G01 X170.5370 Y101.6913 
G01 X170.4598 Y101.6913 
G01 X170.4542 Y101.7266 
G01 X170.3968 Y101.9034 
G01 X170.3124 Y102.0690 
G01 X170.2031 Y102.2194 
G01 X170.0716 Y102.3509 
G01 X169.9212 Y102.4602 
G01 X169.7556 Y102.5446 
G01 X169.5788 Y102.6020 
G01 X169.3952 Y102.6311 
G01 X168.4513 Y102.6311 
G01 X168.4513 Y102.7073 
G01 X169.4011 Y102.7073 
G00 Z2.4000 
G00 X167.0189 Y100.1927 
G01 Z-0.1000 F50.00 
G01 X166.8234 Y100.2237 F100.00 
G01 X166.6352 Y100.2848 
G01 X166.4588 Y100.3747 
G01 X166.2987 Y100.4910 
G01 X166.1588 Y100.6309 
G01 X166.0425 Y100.7910 
G01 X165.9785 Y100.9166 
G01 X166.0640 Y100.9166 
G01 X166.1076 Y100.8310 
G01 X166.2169 Y100.6806 
G01 X166.3484 Y100.5491 
G01 X166.4988 Y100.4398 
G01 X166.6644 Y100.3554 
G01 X166.8412 Y100.2980 
G01 X167.0248 Y100.2689 
G01 X167.9687 Y100.2689 
G01 X167.9687 Y100.1927 
G01 X167.0189 Y100.1927 
G00 Z2.4000 
G00 X6.8423 Y26.2027 
G01 Z-0.1000 F50.00 
G01 X6.2973 Y25.6577 F100.00 
G01 X5.6298 Y25.2724 
G01 X4.8854 Y25.0729 
G01 X4.1146 Y25.0729 
G01 X3.3702 Y25.2724 
G01 X2.7027 Y25.6577 
G01 X2.1577 Y26.2027 
G01 X1.7724 Y26.8702 
G01 X1.5729 Y27.6146 
G01 X1.5729 Y28.3854 
G01 X1.7724 Y29.1298 
G01 X2.1577 Y29.7973 
G01 X2.7027 Y30.3423 
G01 X3.3702 Y30.7276 
G01 X4.1146 Y30.9271 
G01 X4.8854 Y30.9271 
G01 X5.6298 Y30.7276 
G01 X6.2973 Y30.3423 
G01 X6.8423 Y29.7973 
G01 X7.2276 Y29.1298 
G01 X7.4271 Y28.3854 
G01 X7.4271 Y27.6146 
G01 X7.2276 Y26.8702 
G01 X6.8423 Y26.2027 
G00 Z2.4000 
G00 X226.3423 Y68.2027 
G01 Z-0.1000 F50.00 
G01 X225.7973 Y67.6577 F100.00 
G01 X225.1298 Y67.2724 
G01 X224.3854 Y67.0729 
G01 X223.6146 Y67.0729 
G01 X222.8702 Y67.2724 
G01 X222.2027 Y67.6577 
G01 X221.6577 Y68.2027 
G01 X221.2724 Y68.8702 
G01 X221.0729 Y69.6146 
G01 X221.0729 Y70.3854 
G01 X221.2724 Y71.1298 
G01 X221.6577 Y71.7973 
G01 X222.2027 Y72.3423 
G01 X222.8702 Y72.7276 
G01 X223.6146 Y72.9271 
G01 X224.3854 Y72.9271 
G01 X225.1298 Y72.7276 
G01 X225.7973 Y72.3423 
G01 X226.3423 Y71.7973 
G01 X226.7276 Y71.1298 
G01 X226.9271 Y70.3854 
G01 X226.9271 Y69.6146 
G01 X226.7276 Y68.8702 
G01 X226.3423 Y68.2027 
G00 Z2.4000 
G00 X200.5983 Y67.0065 
G01 Z-0.1000 F50.00 
G01 X199.8532 Y66.6979 F100.00 
G01 X199.0468 Y66.6979 
G01 X198.3017 Y67.0065 
G01 X197.7315 Y67.5767 
G01 X197.4229 Y68.3218 
G01 X197.4229 Y69.1282 
G01 X197.7315 Y69.8733 
G01 X198.3017 Y70.4435 
G01 X199.0468 Y70.7521 
G01 X199.8532 Y70.7521 
G01 X200.5983 Y70.4435 
G01 X201.1685 Y69.8733 
G01 X201.4771 Y69.1282 
G01 X201.4771 Y68.3218 
G01 X201.1685 Y67.5767 
G01 X200.5983 Y67.0065 
G00 Z2.4000 
G00 X156.0292 Y82.3704 
G01 Z-0.1000 F50.00 
G01 X155.1831 Y82.0199 F100.00 
G01 X154.2673 Y82.0199 
G01 X153.4212 Y82.3704 
G01 X152.7736 Y83.0180 
G01 X152.4231 Y83.8641 
G01 X152.4231 Y84.7799 
G01 X152.7736 Y85.6260 
G01 X153.4212 Y86.2736 
G01 X154.2673 Y86.6241 
G01 X155.1831 Y86.6241 
G01 X156.0292 Y86.2736 
G01 X156.6768 Y85.6260 
G01 X157.0273 Y84.7799 
G01 X157.0273 Y83.8641 
G01 X156.6768 Y83.0180 
G01 X156.0292 Y82.3704 
G00 Z2.4000 
G00 X187.1763 Y18.3101 
G01 Z-0.1000 F50.00 
G01 X189.2117 Y18.3101 F100.00 
G01 X189.2444 Y18.3236 
G01 X189.2694 Y18.3486 
G01 X189.2829 Y18.3813 
G01 X189.2829 Y20.4167 
G01 X189.2694 Y20.4494 
G01 X189.2444 Y20.4744 
G01 X189.2117 Y20.4879 
G01 X187.1763 Y20.4879 
G01 X187.1436 Y20.4744 
G01 X187.1186 Y20.4494 
G01 X187.1051 Y20.4167 
G01 X187.1051 Y18.3813 
G01 X187.1186 Y18.3486 
G01 X187.1436 Y18.3236 
G01 X187.1763 Y18.3101 
G00 Z2.4000 
G00 X187.1763 Y36.8521 
G01 Z-0.1000 F50.00 
G01 X189.2117 Y36.8521 F100.00 
G01 X189.2444 Y36.8656 
G01 X189.2694 Y36.8906 
G01 X189.2829 Y36.9233 
G01 X189.2829 Y38.9587 
G01 X189.2694 Y38.9914 
G01 X189.2444 Y39.0164 
G01 X189.2117 Y39.0299 
G01 X187.1763 Y39.0299 
G01 X187.1436 Y39.0164 
G01 X187.1186 Y38.9914 
G01 X187.1051 Y38.9587 
G01 X187.1051 Y36.9233 
G01 X187.1186 Y36.8906 
G01 X187.1436 Y36.8656 
G01 X187.1763 Y36.8521 
G00 Z2.4000 
G00 X181.1549 Y19.3133 
G01 Z-0.1000 F50.00 
G01 X181.1549 Y19.4847 F100.00 
G01 X181.1281 Y19.6540 
G01 X181.0751 Y19.8170 
G01 X180.9973 Y19.9697 
G01 X180.8966 Y20.1084 
G01 X180.7754 Y20.2296 
G01 X180.6367 Y20.3303 
G01 X180.4840 Y20.4081 
G01 X180.3210 Y20.4611 
G01 X180.1517 Y20.4879 
G01 X179.9803 Y20.4879 
G01 X179.8110 Y20.4611 
G01 X179.6480 Y20.4081 
G01 X179.4953 Y20.3303 
G01 X179.3566 Y20.2296 
G01 X179.2354 Y20.1084 
G01 X179.1347 Y19.9697 
G01 X179.0569 Y19.8170 
G01 X179.0039 Y19.6540 
G01 X178.9771 Y19.4847 
G01 X178.9771 Y19.3133 
G01 X179.0039 Y19.1440 
G01 X179.0569 Y18.9810 
G01 X179.1347 Y18.8283 
G01 X179.2354 Y18.6896 
G01 X179.3566 Y18.5684 
G01 X179.4953 Y18.4677 
G01 X179.6480 Y18.3899 
G01 X179.8110 Y18.3369 
G01 X179.9803 Y18.3101 
G01 X180.1517 Y18.3101 
G01 X180.3210 Y18.3369 
G01 X180.4840 Y18.3899 
G01 X180.6367 Y18.4677 
G01 X180.7754 Y18.5684 
G01 X180.8966 Y18.6896 
G01 X180.9973 Y18.8283 
G01 X181.0751 Y18.9810 
G01 X181.1281 Y19.1440 
G01 X181.1549 Y19.3133 
G00 Z2.4000 
G00 X181.1549 Y37.8553 
G01 Z-0.1000 F50.00 
G01 X181.1549 Y38.0267 F100.00 
G01 X181.1281 Y38.1960 
G01 X181.0751 Y38.3590 
G01 X180.9973 Y38.5117 
G01 X180.8966 Y38.6504 
G01 X180.7754 Y38.7716 
G01 X180.6367 Y38.8723 
G01 X180.4840 Y38.9501 
G01 X180.3210 Y39.0031 
G01 X180.1517 Y39.0299 
G01 X179.9803 Y39.0299 
G01 X179.8110 Y39.0031 
G01 X179.6480 Y38.9501 
G01 X179.4953 Y38.8723 
G01 X179.3566 Y38.7716 
G01 X179.2354 Y38.6504 
G01 X179.1347 Y38.5117 
G01 X179.0569 Y38.3590 
G01 X179.0039 Y38.1960 
G01 X178.9771 Y38.0267 
G01 X178.9771 Y37.8553 
G01 X179.0039 Y37.6860 
G01 X179.0569 Y37.5230 
G01 X179.1347 Y37.3703 
G01 X179.2354 Y37.2316 
G01 X179.3566 Y37.1104 
G01 X179.4953 Y37.0097 
G01 X179.6480 Y36.9319 
G01 X179.8110 Y36.8789 
G01 X179.9803 Y36.8521 
G01 X180.1517 Y36.8521 
G01 X180.3210 Y36.8789 
G01 X180.4840 Y36.9319 
G01 X180.6367 Y37.0097 
G01 X180.7754 Y37.1104 
G01 X180.8966 Y37.2316 
G01 X180.9973 Y37.3703 
G01 X181.0751 Y37.5230 
G01 X181.1281 Y37.6860 
G01 X181.1549 Y37.8553 
G00 Z2.4000 
G00 X196.3199 Y87.6563 
G01 Z-0.1000 F50.00 
G01 X196.3199 Y89.6917 F100.00 
G01 X196.3064 Y89.7244 
G01 X196.2814 Y89.7494 
G01 X196.2487 Y89.7629 
G01 X194.2133 Y89.7629 
G01 X194.1806 Y89.7494 
G01 X194.1556 Y89.7244 
G01 X194.1421 Y89.6917 
G01 X194.1421 Y87.6563 
G01 X194.1556 Y87.6236 
G01 X194.1806 Y87.5986 
G01 X194.2133 Y87.5851 
G01 X196.2487 Y87.5851 
G01 X196.2814 Y87.5986 
G01 X196.3064 Y87.6236 
G01 X196.3199 Y87.6563 
G00 Z2.4000 
G00 X196.3199 Y90.1963 
G01 Z-0.1000 F50.00 
G01 X196.3199 Y92.2317 F100.00 
G01 X196.3064 Y92.2644 
G01 X196.2814 Y92.2894 
G01 X196.2487 Y92.3029 
G01 X194.2133 Y92.3029 
G01 X194.1806 Y92.2894 
G01 X194.1556 Y92.2644 
G01 X194.1421 Y92.2317 
G01 X194.1421 Y91.7469 
G01 X194.0081 Y91.7110 
G01 X193.8865 Y91.6408 
G01 X191.5732 Y89.3275 
G01 X191.5029 Y89.2059 
G01 X191.4666 Y89.0702 
G01 X191.4666 Y77.9298 
G01 X191.5029 Y77.7941 
G01 X191.5732 Y77.6725 
G01 X191.6725 Y77.5732 
G01 X195.5732 Y73.6725 
G01 X195.6725 Y73.5732 
G01 X195.7941 Y73.5029 
G01 X195.9298 Y73.4666 
G01 X208.7791 Y73.4666 
G01 X211.4666 Y70.7791 
G01 X211.4666 Y59.2209 
G01 X208.1691 Y55.9234 
G01 X206.6970 Y55.9234 
G01 X206.6907 Y55.9358 
G01 X206.5943 Y56.0684 
G01 X206.4784 Y56.1843 
G01 X206.3458 Y56.2807 
G01 X206.1998 Y56.3551 
G01 X206.0439 Y56.4058 
G01 X205.8820 Y56.4314 
G01 X203.8130 Y56.4314 
G01 X203.6511 Y56.4058 
G01 X203.4952 Y56.3551 
G01 X203.3492 Y56.2807 
G01 X203.2166 Y56.1843 
G01 X203.1007 Y56.0684 
G01 X203.0043 Y55.9358 
G01 X202.9980 Y55.9234 
G01 X183.7198 Y55.9234 
G01 X183.5841 Y55.8870 
G01 X183.4625 Y55.8168 
G01 X160.5732 Y32.9275 
G01 X160.5029 Y32.8059 
G01 X160.4666 Y32.6702 
G01 X160.4666 Y24.8209 
G01 X154.7791 Y19.1334 
G01 X100.2209 Y19.1334 
G01 X96.5334 Y22.8209 
G01 X96.5334 Y28.3791 
G01 X98.8130 Y30.6586 
G01 X101.7037 Y30.6586 
G01 X101.7855 Y30.5363 
G01 X101.9288 Y30.3930 
G01 X102.0972 Y30.2804 
G01 X102.2845 Y30.2029 
G01 X102.4832 Y30.1633 
G01 X104.5654 Y30.1633 
G01 X104.7642 Y30.2029 
G01 X104.9514 Y30.2804 
G01 X105.1199 Y30.3930 
G01 X105.2632 Y30.5363 
G01 X105.3757 Y30.7048 
G01 X105.4533 Y30.8920 
G01 X105.4928 Y31.0907 
G01 X105.4928 Y31.2934 
G01 X105.4533 Y31.4921 
G01 X105.3757 Y31.6793 
G01 X105.2632 Y31.8478 
G01 X105.1199 Y31.9911 
G01 X104.9514 Y32.1037 
G01 X104.7642 Y32.1812 
G01 X104.5654 Y32.2207 
G01 X102.4832 Y32.2207 
G01 X102.2845 Y32.1812 
G01 X102.0972 Y32.1037 
G01 X101.9288 Y31.9911 
G01 X101.7855 Y31.8478 
G01 X101.7037 Y31.7254 
G01 X98.5218 Y31.7254 
G01 X98.3862 Y31.6891 
G01 X98.2645 Y31.6189 
G01 X98.1652 Y31.5196 
G01 X95.5732 Y28.9275 
G01 X95.5029 Y28.8059 
G01 X95.4666 Y28.6702 
G01 X95.4666 Y22.5298 
G01 X95.5029 Y22.3941 
G01 X95.5732 Y22.2725 
G01 X99.6725 Y18.1732 
G01 X99.7941 Y18.1029 
G01 X99.9298 Y18.0666 
G01 X155.0702 Y18.0666 
G01 X155.2059 Y18.1029 
G01 X155.3275 Y18.1732 
G01 X155.4268 Y18.2725 
G01 X161.4268 Y24.2725 
G01 X161.4970 Y24.3941 
G01 X161.5334 Y24.5298 
G01 X161.5334 Y32.3791 
G01 X184.0109 Y54.8566 
G01 X202.9980 Y54.8566 
G01 X203.0043 Y54.8442 
G01 X203.1007 Y54.7116 
G01 X203.2166 Y54.5957 
G01 X203.3492 Y54.4993 
G01 X203.4952 Y54.4249 
G01 X203.6511 Y54.3742 
G01 X203.8130 Y54.3486 
G01 X205.8820 Y54.3486 
G01 X206.0439 Y54.3742 
G01 X206.1998 Y54.4249 
G01 X206.3458 Y54.4993 
G01 X206.4784 Y54.5957 
G01 X206.5943 Y54.7116 
G01 X206.6907 Y54.8442 
G01 X206.6970 Y54.8566 
G01 X208.4602 Y54.8566 
G01 X208.5959 Y54.8930 
G01 X208.7175 Y54.9632 
G01 X212.3275 Y58.5732 
G01 X212.4268 Y58.6725 
G01 X212.4970 Y58.7941 
G01 X212.5334 Y58.9298 
G01 X212.5334 Y71.0702 
G01 X212.4970 Y71.2059 
G01 X212.4268 Y71.3275 
G01 X209.3275 Y74.4268 
G01 X209.2059 Y74.4970 
G01 X209.0702 Y74.5334 
G01 X196.2209 Y74.5334 
G01 X192.5334 Y78.2209 
G01 X192.5334 Y88.7791 
G01 X194.1421 Y90.3878 
G01 X194.1421 Y90.1963 
G01 X194.1556 Y90.1636 
G01 X194.1806 Y90.1386 
G01 X194.2133 Y90.1251 
G01 X196.2487 Y90.1251 
G01 X196.2814 Y90.1386 
G01 X196.3064 Y90.1636 
G01 X196.3199 Y90.1963 
G00 Z2.4000 
G00 X177.7779 Y87.6563 
G01 Z-0.1000 F50.00 
G01 X177.7779 Y89.6917 F100.00 
G01 X177.7644 Y89.7244 
G01 X177.7394 Y89.7494 
G01 X177.7067 Y89.7629 
G01 X175.6713 Y89.7629 
G01 X175.6386 Y89.7494 
G01 X175.6136 Y89.7244 
G01 X175.6001 Y89.6917 
G01 X175.6001 Y87.6563 
G01 X175.6136 Y87.6236 
G01 X175.6386 Y87.5986 
G01 X175.6713 Y87.5851 
G01 X177.7067 Y87.5851 
G01 X177.7394 Y87.5986 
G01 X177.7644 Y87.6236 
G01 X177.7779 Y87.6563 
G00 Z2.4000 
G00 X177.7779 Y80.4603 
G01 Z-0.1000 F50.00 
G01 X177.7779 Y80.6317 F100.00 
G01 X177.7511 Y80.8010 
G01 X177.6981 Y80.9640 
G01 X177.6203 Y81.1167 
G01 X177.5196 Y81.2554 
G01 X177.3984 Y81.3766 
G01 X177.2597 Y81.4773 
G01 X177.1070 Y81.5551 
G01 X176.9440 Y81.6081 
G01 X176.7747 Y81.6349 
G01 X176.6033 Y81.6349 
G01 X176.4340 Y81.6081 
G01 X176.2710 Y81.5551 
G01 X176.1183 Y81.4773 
G01 X175.9796 Y81.3766 
G01 X175.8584 Y81.2554 
G01 X175.7577 Y81.1167 
G01 X175.6799 Y80.9640 
G01 X175.6269 Y80.8010 
G01 X175.6001 Y80.6317 
G01 X175.6001 Y80.4603 
G01 X175.6269 Y80.2910 
G01 X175.6799 Y80.1280 
G01 X175.7577 Y79.9753 
G01 X175.8584 Y79.8366 
G01 X175.9796 Y79.7154 
G01 X176.1183 Y79.6147 
G01 X176.2710 Y79.5369 
G01 X176.4340 Y79.4839 
G01 X176.6033 Y79.4571 
G01 X176.7747 Y79.4571 
G01 X176.9440 Y79.4839 
G01 X177.1070 Y79.5369 
G01 X177.2597 Y79.6147 
G01 X177.3984 Y79.7154 
G01 X177.5196 Y79.8366 
G01 X177.6203 Y79.9753 
G01 X177.6981 Y80.1280 
G01 X177.7511 Y80.2910 
G01 X177.7779 Y80.4603 
G00 Z2.4000 
G00 X177.7779 Y90.1963 
G01 Z-0.1000 F50.00 
G01 X177.7779 Y90.6806 F100.00 
G01 X179.2842 Y90.6806 
G01 X179.4199 Y90.7170 
G01 X179.5415 Y90.7872 
G01 X182.6209 Y93.8666 
G01 X197.3791 Y93.8666 
G01 X200.4666 Y90.7791 
G01 X200.4666 Y85.9298 
G01 X200.5029 Y85.7941 
G01 X200.5732 Y85.6725 
G01 X200.6725 Y85.5732 
G01 X206.6725 Y79.5732 
G01 X206.7941 Y79.5029 
G01 X206.9298 Y79.4666 
G01 X209.8791 Y79.4666 
G01 X214.5666 Y74.7791 
G01 X214.5666 Y57.9209 
G01 X200.1791 Y43.5334 
G01 X192.9298 Y43.5334 
G01 X192.7941 Y43.4970 
G01 X192.6725 Y43.4268 
G01 X190.3072 Y41.0615 
G01 X190.2370 Y40.9399 
G01 X190.2006 Y40.8042 
G01 X190.2006 Y39.0299 
G01 X189.7163 Y39.0299 
G01 X189.6836 Y39.0164 
G01 X189.6586 Y38.9914 
G01 X189.6451 Y38.9587 
G01 X189.6451 Y36.9233 
G01 X189.6586 Y36.8906 
G01 X189.6836 Y36.8656 
G01 X189.7163 Y36.8521 
G01 X191.7517 Y36.8521 
G01 X191.7844 Y36.8656 
G01 X191.8094 Y36.8906 
G01 X191.8229 Y36.9233 
G01 X191.8229 Y38.9587 
G01 X191.8094 Y38.9914 
G01 X191.7844 Y39.0164 
G01 X191.7517 Y39.0299 
G01 X191.2674 Y39.0299 
G01 X191.2674 Y40.5131 
G01 X193.2209 Y42.4666 
G01 X200.4702 Y42.4666 
G01 X200.6059 Y42.5030 
G01 X200.7275 Y42.5732 
G01 X215.4275 Y57.2732 
G01 X215.5268 Y57.3725 
G01 X215.5970 Y57.4941 
G01 X215.6334 Y57.6298 
G01 X215.6334 Y75.0702 
G01 X215.5970 Y75.2059 
G01 X215.5268 Y75.3275 
G01 X215.4275 Y75.4268 
G01 X210.5268 Y80.3275 
G01 X210.4275 Y80.4268 
G01 X210.3059 Y80.4970 
G01 X210.1702 Y80.5334 
G01 X207.2209 Y80.5334 
G01 X201.5334 Y86.2209 
G01 X201.5334 Y91.0702 
G01 X201.4970 Y91.2059 
G01 X201.4268 Y91.3275 
G01 X201.3275 Y91.4268 
G01 X198.0268 Y94.7275 
G01 X197.9275 Y94.8268 
G01 X197.8059 Y94.8970 
G01 X197.6702 Y94.9334 
G01 X182.3298 Y94.9334 
G01 X182.1941 Y94.8970 
G01 X182.0725 Y94.8268 
G01 X178.9931 Y91.7474 
G01 X177.7779 Y91.7474 
G01 X177.7779 Y92.2317 
G01 X177.7644 Y92.2644 
G01 X177.7394 Y92.2894 
G01 X177.7067 Y92.3029 
G01 X175.6713 Y92.3029 
G01 X175.6386 Y92.2894 
G01 X175.6136 Y92.2644 
G01 X175.6001 Y92.2317 
G01 X175.6001 Y92.1542 
G01 X171.8775 Y95.8768 
G01 X171.7559 Y95.9470 
G01 X171.6202 Y95.9834 
G01 X170.3560 Y95.9834 
G01 X170.3124 Y96.0690 
G01 X170.2031 Y96.2194 
G01 X170.0716 Y96.3509 
G01 X169.9212 Y96.4602 
G01 X169.7556 Y96.5446 
G01 X169.5788 Y96.6020 
G01 X169.3952 Y96.6311 
G01 X167.0248 Y96.6311 
G01 X166.8412 Y96.6020 
G01 X166.6644 Y96.5446 
G01 X166.4988 Y96.4602 
G01 X166.3484 Y96.3509 
G01 X166.2169 Y96.2194 
G01 X166.1076 Y96.0690 
G01 X166.0232 Y95.9034 
G01 X165.9658 Y95.7266 
G01 X165.9367 Y95.5430 
G01 X165.9367 Y95.3570 
G01 X165.9658 Y95.1734 
G01 X166.0232 Y94.9966 
G01 X166.1076 Y94.8310 
G01 X166.2169 Y94.6806 
G01 X166.3484 Y94.5491 
G01 X166.4988 Y94.4398 
G01 X166.6644 Y94.3554 
G01 X166.8412 Y94.2980 
G01 X167.0248 Y94.2689 
G01 X169.3952 Y94.2689 
G01 X169.5788 Y94.2980 
G01 X169.7556 Y94.3554 
G01 X169.9212 Y94.4398 
G01 X170.0716 Y94.5491 
G01 X170.2031 Y94.6806 
G01 X170.3124 Y94.8310 
G01 X170.3560 Y94.9166 
G01 X171.3291 Y94.9166 
G01 X175.4585 Y90.7872 
G01 X175.5801 Y90.7170 
G01 X175.6001 Y90.7116 
G01 X175.6001 Y90.1963 
G01 X175.6136 Y90.1636 
G01 X175.6386 Y90.1386 
G01 X175.6713 Y90.1251 
G01 X177.7067 Y90.1251 
G01 X177.7394 Y90.1386 
G01 X177.7644 Y90.1636 
G01 X177.7779 Y90.1963 
G00 Z2.4000 
G00 X203.8130 Y59.4286 
G01 Z-0.1000 F50.00 
G01 X205.8820 Y59.4286 F100.00 
G01 X206.0439 Y59.4542 
G01 X206.1998 Y59.5049 
G01 X206.3458 Y59.5793 
G01 X206.4784 Y59.6757 
G01 X206.5943 Y59.7916 
G01 X206.6907 Y59.9242 
G01 X206.7651 Y60.0702 
G01 X206.8158 Y60.2261 
G01 X206.8414 Y60.3880 
G01 X206.8414 Y60.5520 
G01 X206.8158 Y60.7139 
G01 X206.7651 Y60.8698 
G01 X206.6907 Y61.0158 
G01 X206.5943 Y61.1484 
G01 X206.4784 Y61.2643 
G01 X206.3458 Y61.3607 
G01 X206.1998 Y61.4351 
G01 X206.0439 Y61.4858 
G01 X205.8820 Y61.5114 
G01 X203.8130 Y61.5114 
G01 X203.6511 Y61.4858 
G01 X203.4952 Y61.4351 
G01 X203.3492 Y61.3607 
G01 X203.2166 Y61.2643 
G01 X203.1007 Y61.1484 
G01 X203.0043 Y61.0158 
G01 X202.9980 Y61.0034 
G01 X179.6445 Y61.0034 
G01 X179.5088 Y60.9670 
G01 X179.3872 Y60.8968 
G01 X147.5478 Y29.0574 
G01 X118.9690 Y29.0574 
G01 X111.3275 Y36.6989 
G01 X111.2059 Y36.7691 
G01 X111.0702 Y36.8054 
G01 X109.7645 Y36.8054 
G01 X109.6828 Y36.9278 
G01 X109.5395 Y37.0711 
G01 X109.3710 Y37.1837 
G01 X109.1838 Y37.2612 
G01 X108.9850 Y37.3007 
G01 X106.9028 Y37.3007 
G01 X106.7041 Y37.2612 
G01 X106.5168 Y37.1837 
G01 X106.3484 Y37.0711 
G01 X106.2051 Y36.9278 
G01 X106.0925 Y36.7593 
G01 X106.0149 Y36.5721 
G01 X105.9754 Y36.3734 
G01 X105.9754 Y36.1707 
G01 X106.0149 Y35.9720 
G01 X106.0925 Y35.7848 
G01 X106.2051 Y35.6163 
G01 X106.3484 Y35.4730 
G01 X106.5168 Y35.3604 
G01 X106.7041 Y35.2829 
G01 X106.9028 Y35.2433 
G01 X108.9850 Y35.2433 
G01 X109.1838 Y35.2829 
G01 X109.3710 Y35.3604 
G01 X109.5395 Y35.4730 
G01 X109.6828 Y35.6163 
G01 X109.7645 Y35.7386 
G01 X110.7791 Y35.7386 
G01 X118.3212 Y28.1965 
G01 X118.4205 Y28.0972 
G01 X118.5422 Y28.0270 
G01 X118.6778 Y27.9906 
G01 X147.8390 Y27.9906 
G01 X147.9746 Y28.0270 
G01 X148.0962 Y28.0972 
G01 X179.9357 Y59.9366 
G01 X202.9980 Y59.9366 
G01 X203.0043 Y59.9242 
G01 X203.1007 Y59.7916 
G01 X203.2166 Y59.6757 
G01 X203.3492 Y59.5793 
G01 X203.4952 Y59.5049 
G01 X203.6511 Y59.4542 
G01 X203.8130 Y59.4286 
G00 Z2.4000 
G00 X203.8130 Y61.9686 
G01 Z-0.1000 F50.00 
G01 X205.8820 Y61.9686 F100.00 
G01 X206.0439 Y61.9942 
G01 X206.1998 Y62.0449 
G01 X206.3458 Y62.1193 
G01 X206.4784 Y62.2157 
G01 X206.5943 Y62.3316 
G01 X206.6907 Y62.4642 
G01 X206.7651 Y62.6102 
G01 X206.8158 Y62.7661 
G01 X206.8414 Y62.9280 
G01 X206.8414 Y63.0920 
G01 X206.8158 Y63.2539 
G01 X206.7651 Y63.4098 
G01 X206.6907 Y63.5558 
G01 X206.5943 Y63.6884 
G01 X206.4784 Y63.8043 
G01 X206.3458 Y63.9007 
G01 X206.1998 Y63.9751 
G01 X206.0439 Y64.0258 
G01 X205.8820 Y64.0514 
G01 X203.8130 Y64.0514 
G01 X203.6511 Y64.0258 
G01 X203.4952 Y63.9751 
G01 X203.3492 Y63.9007 
G01 X203.2166 Y63.8043 
G01 X203.1007 Y63.6884 
G01 X203.0043 Y63.5558 
G01 X202.9299 Y63.4098 
G01 X202.8792 Y63.2539 
G01 X202.8536 Y63.0920 
G01 X202.8536 Y62.9280 
G01 X202.8792 Y62.7661 
G01 X202.9299 Y62.6102 
G01 X203.0043 Y62.4642 
G01 X203.1007 Y62.3316 
G01 X203.2166 Y62.2157 
G01 X203.3492 Y62.1193 
G01 X203.4952 Y62.0449 
G01 X203.6511 Y61.9942 
G01 X203.8130 Y61.9686 
G00 Z2.4000 
G00 X203.8130 Y64.5086 
G01 Z-0.1000 F50.00 
G01 X205.8820 Y64.5086 F100.00 
G01 X206.0439 Y64.5342 
G01 X206.1998 Y64.5849 
G01 X206.3458 Y64.6593 
G01 X206.4784 Y64.7557 
G01 X206.5943 Y64.8716 
G01 X206.6907 Y65.0042 
G01 X206.7651 Y65.1502 
G01 X206.8158 Y65.3061 
G01 X206.8414 Y65.4680 
G01 X206.8414 Y65.6320 
G01 X206.8158 Y65.7939 
G01 X206.7651 Y65.9498 
G01 X206.6907 Y66.0958 
G01 X206.5943 Y66.2284 
G01 X206.4784 Y66.3443 
G01 X206.3458 Y66.4407 
G01 X206.1998 Y66.5151 
G01 X206.0439 Y66.5658 
G01 X205.8820 Y66.5914 
G01 X203.8130 Y66.5914 
G01 X203.6511 Y66.5658 
G01 X203.4952 Y66.5151 
G01 X203.3492 Y66.4407 
G01 X203.2166 Y66.3443 
G01 X203.1007 Y66.2284 
G01 X203.0043 Y66.0958 
G01 X202.9299 Y65.9498 
G01 X202.8792 Y65.7939 
G01 X202.8536 Y65.6320 
G01 X202.8536 Y65.4680 
G01 X202.8792 Y65.3061 
G01 X202.9299 Y65.1502 
G01 X203.0043 Y65.0042 
G01 X203.1007 Y64.8716 
G01 X203.2166 Y64.7557 
G01 X203.3492 Y64.6593 
G01 X203.4952 Y64.5849 
G01 X203.6511 Y64.5342 
G01 X203.8130 Y64.5086 
G00 Z2.4000 
G00 X103.6440 Y14.3184 
G01 Z-0.1000 F50.00 
G01 X102.6760 Y14.3184 F100.00 
G01 X101.9916 Y13.6340 
G01 X101.9916 Y12.6660 
G01 X102.6760 Y11.9816 
G01 X103.6440 Y11.9816 
G01 X104.2790 Y12.6166 
G01 X188.4802 Y12.6166 
G01 X188.6159 Y12.6530 
G01 X188.7375 Y12.7232 
G01 X188.8368 Y12.8225 
G01 X191.4715 Y15.4572 
G01 X191.5708 Y15.5565 
G01 X191.6410 Y15.6781 
G01 X191.6774 Y15.8138 
G01 X191.6774 Y18.3101 
G01 X191.7517 Y18.3101 
G01 X191.7844 Y18.3236 
G01 X191.8094 Y18.3486 
G01 X191.8229 Y18.3813 
G01 X191.8229 Y20.4167 
G01 X191.8094 Y20.4494 
G01 X191.7844 Y20.4744 
G01 X191.7517 Y20.4879 
G01 X189.7163 Y20.4879 
G01 X189.6836 Y20.4744 
G01 X189.6586 Y20.4494 
G01 X189.6451 Y20.4167 
G01 X189.6451 Y18.3813 
G01 X189.6586 Y18.3486 
G01 X189.6836 Y18.3236 
G01 X189.7163 Y18.3101 
G01 X190.6106 Y18.3101 
G01 X190.6106 Y16.1049 
G01 X188.1891 Y13.6834 
G01 X104.2790 Y13.6834 
G01 X103.6440 Y14.3184 
G00 Z2.4000 
G00 X102.4832 Y78.4233 
G01 Z-0.1000 F50.00 
G01 X104.5654 Y78.4233 F100.00 
G01 X104.7642 Y78.4629 
G01 X104.9514 Y78.5404 
G01 X105.1199 Y78.6530 
G01 X105.2632 Y78.7963 
G01 X105.3757 Y78.9648 
G01 X105.4533 Y79.1520 
G01 X105.4928 Y79.3507 
G01 X105.4928 Y79.5534 
G01 X105.4533 Y79.7521 
G01 X105.3757 Y79.9393 
G01 X105.2632 Y80.1078 
G01 X105.1199 Y80.2511 
G01 X104.9514 Y80.3637 
G01 X104.7642 Y80.4412 
G01 X104.5654 Y80.4807 
G01 X102.4832 Y80.4807 
G01 X102.2845 Y80.4412 
G01 X102.0972 Y80.3637 
G01 X101.9288 Y80.2511 
G01 X101.7855 Y80.1078 
G01 X101.6729 Y79.9393 
G01 X101.5953 Y79.7521 
G01 X101.5558 Y79.5534 
G01 X101.5558 Y79.3507 
G01 X101.5953 Y79.1520 
G01 X101.6729 Y78.9648 
G01 X101.7855 Y78.7963 
G01 X101.9288 Y78.6530 
G01 X102.0972 Y78.5404 
G01 X102.2845 Y78.4629 
G01 X102.4832 Y78.4233 
G00 Z2.4000 
G00 X102.4832 Y75.8833 
G01 Z-0.1000 F50.00 
G01 X104.5654 Y75.8833 F100.00 
G01 X104.7642 Y75.9229 
G01 X104.9514 Y76.0004 
G01 X105.1199 Y76.1130 
G01 X105.2632 Y76.2563 
G01 X105.3757 Y76.4248 
G01 X105.4533 Y76.6120 
G01 X105.4928 Y76.8107 
G01 X105.4928 Y77.0134 
G01 X105.4533 Y77.2121 
G01 X105.3757 Y77.3993 
G01 X105.2632 Y77.5678 
G01 X105.1199 Y77.7111 
G01 X104.9514 Y77.8237 
G01 X104.7642 Y77.9012 
G01 X104.5654 Y77.9407 
G01 X102.4832 Y77.9407 
G01 X102.2845 Y77.9012 
G01 X102.0972 Y77.8237 
G01 X101.9288 Y77.7111 
G01 X101.7855 Y77.5678 
G01 X101.6729 Y77.3993 
G01 X101.5953 Y77.2121 
G01 X101.5558 Y77.0134 
G01 X101.5558 Y76.8107 
G01 X101.5953 Y76.6120 
G01 X101.6729 Y76.4248 
G01 X101.7855 Y76.2563 
G01 X101.9288 Y76.1130 
G01 X102.0972 Y76.0004 
G01 X102.2845 Y75.9229 
G01 X102.4832 Y75.8833 
G00 Z2.4000 
G00 X108.9850 Y77.9407 
G01 Z-0.1000 F50.00 
G01 X106.9028 Y77.9407 F100.00 
G01 X106.7041 Y77.9012 
G01 X106.5168 Y77.8237 
G01 X106.3484 Y77.7111 
G01 X106.2051 Y77.5678 
G01 X106.0925 Y77.3993 
G01 X106.0149 Y77.2121 
G01 X105.9754 Y77.0134 
G01 X105.9754 Y76.8107 
G01 X106.0149 Y76.6120 
G01 X106.0925 Y76.4248 
G01 X106.2051 Y76.2563 
G01 X106.3484 Y76.1130 
G01 X106.5168 Y76.0004 
G01 X106.7041 Y75.9229 
G01 X106.9028 Y75.8833 
G01 X108.9850 Y75.8833 
G01 X109.1838 Y75.9229 
G01 X109.3710 Y76.0004 
G01 X109.5395 Y76.1130 
G01 X109.6828 Y76.2563 
G01 X109.7953 Y76.4248 
G01 X109.8729 Y76.6120 
G01 X109.9124 Y76.8107 
G01 X109.9124 Y77.0134 
G01 X109.8729 Y77.2121 
G01 X109.7953 Y77.3993 
G01 X109.6828 Y77.5678 
G01 X109.5395 Y77.7111 
G01 X109.3710 Y77.8237 
G01 X109.1838 Y77.9012 
G01 X108.9850 Y77.9407 
G00 Z2.4000 
G00 X102.4832 Y73.3433 
G01 Z-0.1000 F50.00 
G01 X104.5654 Y73.3433 F100.00 
G01 X104.7642 Y73.3829 
G01 X104.9514 Y73.4604 
G01 X105.1199 Y73.5730 
G01 X105.2632 Y73.7163 
G01 X105.3757 Y73.8848 
G01 X105.4533 Y74.0720 
G01 X105.4928 Y74.2707 
G01 X105.4928 Y74.4734 
G01 X105.4533 Y74.6721 
G01 X105.3757 Y74.8593 
G01 X105.2632 Y75.0278 
G01 X105.1199 Y75.1711 
G01 X104.9514 Y75.2837 
G01 X104.7642 Y75.3612 
G01 X104.5654 Y75.4007 
G01 X102.4832 Y75.4007 
G01 X102.2845 Y75.3612 
G01 X102.0972 Y75.2837 
G01 X101.9288 Y75.1711 
G01 X101.7855 Y75.0278 
G01 X101.6729 Y74.8593 
G01 X101.5953 Y74.6721 
G01 X101.5558 Y74.4734 
G01 X101.5558 Y74.2707 
G01 X101.5953 Y74.0720 
G01 X101.6729 Y73.8848 
G01 X101.7855 Y73.7163 
G01 X101.9288 Y73.5730 
G01 X102.0972 Y73.4604 
G01 X102.2845 Y73.3829 
G01 X102.4832 Y73.3433 
G00 Z2.4000 
G00 X108.9850 Y75.4007 
G01 Z-0.1000 F50.00 
G01 X106.9028 Y75.4007 F100.00 
G01 X106.7041 Y75.3612 
G01 X106.5168 Y75.2837 
G01 X106.3484 Y75.1711 
G01 X106.2051 Y75.0278 
G01 X106.0925 Y74.8593 
G01 X106.0149 Y74.6721 
G01 X105.9754 Y74.4734 
G01 X105.9754 Y74.2707 
G01 X106.0149 Y74.0720 
G01 X106.0925 Y73.8848 
G01 X106.2051 Y73.7163 
G01 X106.3484 Y73.5730 
G01 X106.5168 Y73.4604 
G01 X106.7041 Y73.3829 
G01 X106.9028 Y73.3433 
G01 X108.9850 Y73.3433 
G01 X109.1838 Y73.3829 
G01 X109.3710 Y73.4604 
G01 X109.5395 Y73.5730 
G01 X109.6828 Y73.7163 
G01 X109.7953 Y73.8848 
G01 X109.8729 Y74.0720 
G01 X109.9124 Y74.2707 
G01 X109.9124 Y74.4734 
G01 X109.8729 Y74.6721 
G01 X109.7953 Y74.8593 
G01 X109.6828 Y75.0278 
G01 X109.5395 Y75.1711 
G01 X109.3710 Y75.2837 
G01 X109.1838 Y75.3612 
G01 X108.9850 Y75.4007 
G00 Z2.4000 
G00 X108.9850 Y72.8607 
G01 Z-0.1000 F50.00 
G01 X106.9028 Y72.8607 F100.00 
G01 X106.7041 Y72.8212 
G01 X106.5168 Y72.7437 
G01 X106.3484 Y72.6311 
G01 X106.2051 Y72.4878 
G01 X106.0925 Y72.3193 
G01 X106.0149 Y72.1321 
G01 X105.9754 Y71.9334 
G01 X105.9754 Y71.7307 
G01 X106.0149 Y71.5320 
G01 X106.0925 Y71.3448 
G01 X106.2051 Y71.1763 
G01 X106.3484 Y71.0330 
G01 X106.5168 Y70.9204 
G01 X106.7041 Y70.8429 
G01 X106.9028 Y70.8033 
G01 X108.9850 Y70.8033 
G01 X109.1838 Y70.8429 
G01 X109.3710 Y70.9204 
G01 X109.5395 Y71.0330 
G01 X109.6828 Y71.1763 
G01 X109.7953 Y71.3448 
G01 X109.8729 Y71.5320 
G01 X109.9124 Y71.7307 
G01 X109.9124 Y71.9334 
G01 X109.8729 Y72.1321 
G01 X109.7953 Y72.3193 
G01 X109.6828 Y72.4878 
G01 X109.5395 Y72.6311 
G01 X109.3710 Y72.7437 
G01 X109.1838 Y72.8212 
G01 X108.9850 Y72.8607 
G00 Z2.4000 
G00 X102.4832 Y68.2633 
G01 Z-0.1000 F50.00 
G01 X104.5654 Y68.2633 F100.00 
G01 X104.7642 Y68.3029 
G01 X104.9514 Y68.3804 
G01 X105.1199 Y68.4930 
G01 X105.2632 Y68.6363 
G01 X105.3757 Y68.8048 
G01 X105.4533 Y68.9920 
G01 X105.4928 Y69.1907 
G01 X105.4928 Y69.3934 
G01 X105.4533 Y69.5921 
G01 X105.3757 Y69.7793 
G01 X105.2632 Y69.9478 
G01 X105.1199 Y70.0911 
G01 X104.9514 Y70.2037 
G01 X104.7642 Y70.2812 
G01 X104.5654 Y70.3207 
G01 X102.4832 Y70.3207 
G01 X102.2845 Y70.2812 
G01 X102.0972 Y70.2037 
G01 X101.9288 Y70.0911 
G01 X101.7855 Y69.9478 
G01 X101.6729 Y69.7793 
G01 X101.5953 Y69.5921 
G01 X101.5558 Y69.3934 
G01 X101.5558 Y69.1907 
G01 X101.5953 Y68.9920 
G01 X101.6729 Y68.8048 
G01 X101.7855 Y68.6363 
G01 X101.9288 Y68.4930 
G01 X102.0972 Y68.3804 
G01 X102.2845 Y68.3029 
G01 X102.4832 Y68.2633 
G00 Z2.4000 
G00 X108.9850 Y70.3207 
G01 Z-0.1000 F50.00 
G01 X106.9028 Y70.3207 F100.00 
G01 X106.7041 Y70.2812 
G01 X106.5168 Y70.2037 
G01 X106.3484 Y70.0911 
G01 X106.2051 Y69.9478 
G01 X106.0925 Y69.7793 
G01 X106.0149 Y69.5921 
G01 X105.9754 Y69.3934 
G01 X105.9754 Y69.1907 
G01 X106.0149 Y68.9920 
G01 X106.0925 Y68.8048 
G01 X106.2051 Y68.6363 
G01 X106.3484 Y68.4930 
G01 X106.5168 Y68.3804 
G01 X106.7041 Y68.3029 
G01 X106.9028 Y68.2633 
G01 X108.9850 Y68.2633 
G01 X109.1838 Y68.3029 
G01 X109.3710 Y68.3804 
G01 X109.5395 Y68.4930 
G01 X109.6828 Y68.6363 
G01 X109.7953 Y68.8048 
G01 X109.8729 Y68.9920 
G01 X109.9124 Y69.1907 
G01 X109.9124 Y69.3934 
G01 X109.8729 Y69.5921 
G01 X109.7953 Y69.7793 
G01 X109.6828 Y69.9478 
G01 X109.5395 Y70.0911 
G01 X109.3710 Y70.2037 
G01 X109.1838 Y70.2812 
G01 X108.9850 Y70.3207 
G00 Z2.4000 
G00 X108.9850 Y67.7807 
G01 Z-0.1000 F50.00 
G01 X106.9028 Y67.7807 F100.00 
G01 X106.7041 Y67.7412 
G01 X106.5168 Y67.6637 
G01 X106.3484 Y67.5511 
G01 X106.2051 Y67.4078 
G01 X106.0925 Y67.2393 
G01 X106.0149 Y67.0521 
G01 X105.9754 Y66.8534 
G01 X105.9754 Y66.6507 
G01 X106.0149 Y66.4520 
G01 X106.0925 Y66.2648 
G01 X106.2051 Y66.0963 
G01 X106.3484 Y65.9530 
G01 X106.5168 Y65.8404 
G01 X106.7041 Y65.7629 
G01 X106.9028 Y65.7233 
G01 X108.9850 Y65.7233 
G01 X109.1838 Y65.7629 
G01 X109.3710 Y65.8404 
G01 X109.5395 Y65.9530 
G01 X109.6828 Y66.0963 
G01 X109.7953 Y66.2648 
G01 X109.8729 Y66.4520 
G01 X109.9124 Y66.6507 
G01 X109.9124 Y66.8534 
G01 X109.8729 Y67.0521 
G01 X109.7953 Y67.2393 
G01 X109.6828 Y67.4078 
G01 X109.5395 Y67.5511 
G01 X109.3710 Y67.6637 
G01 X109.1838 Y67.7412 
G01 X108.9850 Y67.7807 
G00 Z2.4000 
G00 X102.4832 Y63.1833 
G01 Z-0.1000 F50.00 
G01 X104.5654 Y63.1833 F100.00 
G01 X104.7642 Y63.2229 
G01 X104.9514 Y63.3004 
G01 X105.1199 Y63.4130 
G01 X105.2632 Y63.5563 
G01 X105.3757 Y63.7248 
G01 X105.4533 Y63.9120 
G01 X105.4928 Y64.1107 
G01 X105.4928 Y64.3134 
G01 X105.4533 Y64.5121 
G01 X105.3757 Y64.6993 
G01 X105.2632 Y64.8678 
G01 X105.1199 Y65.0111 
G01 X104.9514 Y65.1237 
G01 X104.7642 Y65.2012 
G01 X104.5654 Y65.2407 
G01 X102.4832 Y65.2407 
G01 X102.2845 Y65.2012 
G01 X102.0972 Y65.1237 
G01 X101.9288 Y65.0111 
G01 X101.7855 Y64.8678 
G01 X101.6729 Y64.6993 
G01 X101.5953 Y64.5121 
G01 X101.5558 Y64.3134 
G01 X101.5558 Y64.1107 
G01 X101.5953 Y63.9120 
G01 X101.6729 Y63.7248 
G01 X101.7855 Y63.5563 
G01 X101.9288 Y63.4130 
G01 X102.0972 Y63.3004 
G01 X102.2845 Y63.2229 
G01 X102.4832 Y63.1833 
G00 Z2.4000 
G00 X108.9850 Y65.2407 
G01 Z-0.1000 F50.00 
G01 X106.9028 Y65.2407 F100.00 
G01 X106.7041 Y65.2012 
G01 X106.5168 Y65.1237 
G01 X106.3484 Y65.0111 
G01 X106.2051 Y64.8678 
G01 X106.0925 Y64.6993 
G01 X106.0149 Y64.5121 
G01 X105.9754 Y64.3134 
G01 X105.9754 Y64.1107 
G01 X106.0149 Y63.9120 
G01 X106.0925 Y63.7248 
G01 X106.2051 Y63.5563 
G01 X106.3484 Y63.4130 
G01 X106.5168 Y63.3004 
G01 X106.7041 Y63.2229 
G01 X106.9028 Y63.1833 
G01 X108.9850 Y63.1833 
G01 X109.1838 Y63.2229 
G01 X109.3710 Y63.3004 
G01 X109.5395 Y63.4130 
G01 X109.6828 Y63.5563 
G01 X109.7953 Y63.7248 
G01 X109.8729 Y63.9120 
G01 X109.9124 Y64.1107 
G01 X109.9124 Y64.3134 
G01 X109.8729 Y64.5121 
G01 X109.7953 Y64.6993 
G01 X109.6828 Y64.8678 
G01 X109.5395 Y65.0111 
G01 X109.3710 Y65.1237 
G01 X109.1838 Y65.2012 
G01 X108.9850 Y65.2407 
G00 Z2.4000 
G00 X102.4832 Y32.7033 
G01 Z-0.1000 F50.00 
G01 X104.5654 Y32.7033 F100.00 
G01 X104.7642 Y32.7429 
G01 X104.9514 Y32.8204 
G01 X105.1199 Y32.9330 
G01 X105.2632 Y33.0763 
G01 X105.3757 Y33.2448 
G01 X105.4533 Y33.4320 
G01 X105.4928 Y33.6307 
G01 X105.4928 Y33.8334 
G01 X105.4533 Y34.0321 
G01 X105.3757 Y34.2193 
G01 X105.2632 Y34.3878 
G01 X105.1199 Y34.5311 
G01 X104.9514 Y34.6437 
G01 X104.7642 Y34.7212 
G01 X104.5654 Y34.7607 
G01 X102.4832 Y34.7607 
G01 X102.2845 Y34.7212 
G01 X102.0972 Y34.6437 
G01 X101.9288 Y34.5311 
G01 X101.7855 Y34.3878 
G01 X101.6729 Y34.2193 
G01 X101.5953 Y34.0321 
G01 X101.5558 Y33.8334 
G01 X101.5558 Y33.6307 
G01 X101.5953 Y33.4320 
G01 X101.6729 Y33.2448 
G01 X101.7855 Y33.0763 
G01 X101.9288 Y32.9330 
G01 X102.0972 Y32.8204 
G01 X102.2845 Y32.7429 
G01 X102.4832 Y32.7033 
G00 Z2.4000 
G00 X102.4832 Y35.2433 
G01 Z-0.1000 F50.00 
G01 X104.5654 Y35.2433 F100.00 
G01 X104.7642 Y35.2829 
G01 X104.9514 Y35.3604 
G01 X105.1199 Y35.4730 
G01 X105.2632 Y35.6163 
G01 X105.3757 Y35.7848 
G01 X105.4533 Y35.9720 
G01 X105.4928 Y36.1707 
G01 X105.4928 Y36.3734 
G01 X105.4533 Y36.5721 
G01 X105.3757 Y36.7593 
G01 X105.2632 Y36.9278 
G01 X105.1199 Y37.0711 
G01 X104.9514 Y37.1837 
G01 X104.7642 Y37.2612 
G01 X104.5654 Y37.3007 
G01 X102.4832 Y37.3007 
G01 X102.2845 Y37.2612 
G01 X102.0972 Y37.1837 
G01 X101.9288 Y37.0711 
G01 X101.7855 Y36.9278 
G01 X101.7037 Y36.8054 
G01 X101.6162 Y36.8054 
G01 X101.6395 Y36.8511 
G01 X101.7417 Y36.9918 
G01 X101.8647 Y37.1148 
G01 X101.9497 Y37.1765 
G01 X101.9620 Y37.1816 
G01 X101.9760 Y37.1957 
G01 X101.9921 Y37.2073 
G01 X101.9990 Y37.2187 
G01 X102.0084 Y37.2281 
G01 X102.0160 Y37.2464 
G01 X102.0264 Y37.2633 
G01 X102.0285 Y37.2765 
G01 X102.0336 Y37.2888 
G01 X102.0336 Y37.3086 
G01 X102.0367 Y37.3282 
G01 X102.0336 Y37.3411 
G01 X102.0336 Y37.3544 
G01 X102.0260 Y37.3728 
G01 X102.0213 Y37.3921 
G01 X102.0135 Y37.4028 
G01 X102.0084 Y37.4151 
G01 X101.9944 Y37.4292 
G01 X101.9827 Y37.4452 
G01 X101.9714 Y37.4522 
G01 X101.9620 Y37.4616 
G01 X101.9437 Y37.4692 
G01 X101.9267 Y37.4795 
G01 X101.9136 Y37.4816 
G01 X101.7428 Y37.5524 
G01 X101.3248 Y37.9703 
G01 X101.0986 Y38.5165 
G01 X101.0986 Y39.1076 
G01 X101.3248 Y39.6537 
G01 X101.6132 Y39.9421 
G01 X101.6589 Y39.9878 
G01 X101.6847 Y40.0492 
G01 X101.6847 Y40.1149 
G01 X101.6596 Y40.1756 
G01 X101.3248 Y40.5103 
G01 X101.0986 Y41.0565 
G01 X101.0986 Y41.6476 
G01 X101.3248 Y42.1937 
G01 X101.6132 Y42.4821 
G01 X101.6589 Y42.5278 
G01 X101.6847 Y42.5892 
G01 X101.6847 Y42.6549 
G01 X101.6596 Y42.7156 
G01 X101.3248 Y43.0503 
G01 X101.0986 Y43.5965 
G01 X101.0986 Y44.1876 
G01 X101.3248 Y44.7337 
G01 X101.7428 Y45.1517 
G01 X101.9136 Y45.2225 
G01 X101.9267 Y45.2245 
G01 X101.9437 Y45.2349 
G01 X101.9620 Y45.2425 
G01 X101.9714 Y45.2519 
G01 X101.9827 Y45.2589 
G01 X101.9944 Y45.2749 
G01 X102.0084 Y45.2889 
G01 X102.0135 Y45.3012 
G01 X102.0213 Y45.3120 
G01 X102.0260 Y45.3313 
G01 X102.0336 Y45.3496 
G01 X102.0336 Y45.3629 
G01 X102.0367 Y45.3759 
G01 X102.0336 Y45.3955 
G01 X102.0336 Y45.4153 
G01 X102.0285 Y45.4276 
G01 X102.0264 Y45.4407 
G01 X102.0160 Y45.4577 
G01 X102.0084 Y45.4760 
G01 X101.9990 Y45.4854 
G01 X101.9921 Y45.4967 
G01 X101.9760 Y45.5084 
G01 X101.9620 Y45.5224 
G01 X101.9497 Y45.5275 
G01 X101.8647 Y45.5893 
G01 X101.7417 Y45.7122 
G01 X101.6395 Y45.8529 
G01 X101.6162 Y45.8986 
G01 X101.7037 Y45.8986 
G01 X101.7855 Y45.7763 
G01 X101.9288 Y45.6330 
G01 X102.0972 Y45.5204 
G01 X102.2845 Y45.4429 
G01 X102.4832 Y45.4033 
G01 X104.5654 Y45.4033 
G01 X104.7642 Y45.4429 
G01 X104.9514 Y45.5204 
G01 X105.1199 Y45.6330 
G01 X105.2632 Y45.7763 
G01 X105.3757 Y45.9448 
G01 X105.4533 Y46.1320 
G01 X105.4928 Y46.3307 
G01 X105.4928 Y46.5334 
G01 X105.4533 Y46.7321 
G01 X105.3757 Y46.9193 
G01 X105.2632 Y47.0878 
G01 X105.1199 Y47.2311 
G01 X104.9514 Y47.3437 
G01 X104.7642 Y47.4212 
G01 X104.5654 Y47.4607 
G01 X102.4832 Y47.4607 
G01 X102.2845 Y47.4212 
G01 X102.0972 Y47.3437 
G01 X101.9288 Y47.2311 
G01 X101.7855 Y47.0878 
G01 X101.7037 Y46.9654 
G01 X101.6162 Y46.9654 
G01 X101.6395 Y47.0111 
G01 X101.7417 Y47.1518 
G01 X101.8647 Y47.2748 
G01 X101.9497 Y47.3365 
G01 X101.9620 Y47.3416 
G01 X101.9760 Y47.3557 
G01 X101.9921 Y47.3673 
G01 X101.9990 Y47.3787 
G01 X102.0084 Y47.3881 
G01 X102.0160 Y47.4064 
G01 X102.0264 Y47.4233 
G01 X102.0285 Y47.4365 
G01 X102.0336 Y47.4488 
G01 X102.0336 Y47.4686 
G01 X102.0367 Y47.4882 
G01 X102.0336 Y47.5011 
G01 X102.0336 Y47.5144 
G01 X102.0260 Y47.5328 
G01 X102.0213 Y47.5521 
G01 X102.0135 Y47.5628 
G01 X102.0084 Y47.5751 
G01 X101.9944 Y47.5892 
G01 X101.9827 Y47.6052 
G01 X101.9714 Y47.6122 
G01 X101.9620 Y47.6216 
G01 X101.9437 Y47.6292 
G01 X101.9267 Y47.6395 
G01 X101.9136 Y47.6416 
G01 X101.7428 Y47.7124 
G01 X101.3248 Y48.1303 
G01 X101.0986 Y48.6765 
G01 X101.0986 Y49.2676 
G01 X101.3248 Y49.8137 
G01 X101.6132 Y50.1021 
G01 X101.6589 Y50.1478 
G01 X101.6847 Y50.2092 
G01 X101.6847 Y50.2749 
G01 X101.6596 Y50.3356 
G01 X101.3248 Y50.6703 
G01 X101.0986 Y51.2165 
G01 X101.0986 Y51.8076 
G01 X101.3248 Y52.3537 
G01 X101.7428 Y52.7717 
G01 X101.9136 Y52.8425 
G01 X101.9267 Y52.8445 
G01 X101.9437 Y52.8549 
G01 X101.9620 Y52.8625 
G01 X101.9714 Y52.8719 
G01 X101.9827 Y52.8789 
G01 X101.9944 Y52.8949 
G01 X102.0084 Y52.9089 
G01 X102.0135 Y52.9212 
G01 X102.0213 Y52.9320 
G01 X102.0260 Y52.9513 
G01 X102.0336 Y52.9696 
G01 X102.0336 Y52.9829 
G01 X102.0367 Y52.9959 
G01 X102.0336 Y53.0155 
G01 X102.0336 Y53.0353 
G01 X102.0285 Y53.0476 
G01 X102.0264 Y53.0607 
G01 X102.0160 Y53.0777 
G01 X102.0084 Y53.0960 
G01 X101.9990 Y53.1054 
G01 X101.9921 Y53.1167 
G01 X101.9760 Y53.1284 
G01 X101.9620 Y53.1424 
G01 X101.9497 Y53.1475 
G01 X101.8647 Y53.2093 
G01 X101.7417 Y53.3322 
G01 X101.6395 Y53.4729 
G01 X101.6162 Y53.5186 
G01 X101.7037 Y53.5186 
G01 X101.7855 Y53.3963 
G01 X101.9288 Y53.2530 
G01 X102.0972 Y53.1404 
G01 X102.2845 Y53.0629 
G01 X102.4832 Y53.0233 
G01 X104.5654 Y53.0233 
G01 X104.7642 Y53.0629 
G01 X104.9514 Y53.1404 
G01 X105.1199 Y53.2530 
G01 X105.2632 Y53.3963 
G01 X105.3757 Y53.5648 
G01 X105.4533 Y53.7520 
G01 X105.4928 Y53.9507 
G01 X105.4928 Y54.1534 
G01 X105.4533 Y54.3521 
G01 X105.3757 Y54.5393 
G01 X105.2632 Y54.7078 
G01 X105.1199 Y54.8511 
G01 X104.9514 Y54.9637 
G01 X104.7642 Y55.0412 
G01 X104.5654 Y55.0807 
G01 X102.4832 Y55.0807 
G01 X102.2845 Y55.0412 
G01 X102.0972 Y54.9637 
G01 X101.9288 Y54.8511 
G01 X101.7855 Y54.7078 
G01 X101.7037 Y54.5854 
G01 X101.6162 Y54.5854 
G01 X101.6395 Y54.6311 
G01 X101.7417 Y54.7718 
G01 X101.8647 Y54.8948 
G01 X101.9497 Y54.9566 
G01 X101.9620 Y54.9616 
G01 X101.9760 Y54.9757 
G01 X101.9921 Y54.9873 
G01 X101.9990 Y54.9987 
G01 X102.0084 Y55.0081 
G01 X102.0160 Y55.0264 
G01 X102.0264 Y55.0433 
G01 X102.0285 Y55.0565 
G01 X102.0336 Y55.0688 
G01 X102.0336 Y55.0886 
G01 X102.0367 Y55.1082 
G01 X102.0336 Y55.1212 
G01 X102.0336 Y55.1344 
G01 X102.0260 Y55.1528 
G01 X102.0213 Y55.1721 
G01 X102.0135 Y55.1828 
G01 X102.0084 Y55.1951 
G01 X101.9944 Y55.2092 
G01 X101.9827 Y55.2252 
G01 X101.9714 Y55.2322 
G01 X101.9620 Y55.2416 
G01 X101.9437 Y55.2492 
G01 X101.9267 Y55.2595 
G01 X101.9136 Y55.2616 
G01 X101.7428 Y55.3324 
G01 X101.3248 Y55.7503 
G01 X101.0986 Y56.2965 
G01 X101.0986 Y56.8876 
G01 X101.3248 Y57.4337 
G01 X101.6132 Y57.7221 
G01 X101.6589 Y57.7678 
G01 X101.6847 Y57.8292 
G01 X101.6847 Y57.8949 
G01 X101.6596 Y57.9556 
G01 X101.3248 Y58.2903 
G01 X101.0986 Y58.8365 
G01 X101.0986 Y59.4276 
G01 X101.3248 Y59.9737 
G01 X101.6132 Y60.2621 
G01 X101.6589 Y60.3078 
G01 X101.6847 Y60.3692 
G01 X101.6847 Y60.4349 
G01 X101.6596 Y60.4956 
G01 X101.3248 Y60.8303 
G01 X101.0986 Y61.3765 
G01 X101.0986 Y61.9676 
G01 X101.3248 Y62.5137 
G01 X101.6132 Y62.8021 
G01 X101.6589 Y62.8478 
G01 X101.6847 Y62.9092 
G01 X101.6847 Y62.9749 
G01 X101.6596 Y63.0356 
G01 X101.3248 Y63.3703 
G01 X101.0986 Y63.9165 
G01 X101.0986 Y64.5076 
G01 X101.3248 Y65.0537 
G01 X101.7428 Y65.4717 
G01 X101.9136 Y65.5425 
G01 X101.9267 Y65.5445 
G01 X101.9437 Y65.5549 
G01 X101.9620 Y65.5625 
G01 X101.9714 Y65.5719 
G01 X101.9827 Y65.5789 
G01 X101.9944 Y65.5949 
G01 X102.0084 Y65.6090 
G01 X102.0135 Y65.6212 
G01 X102.0213 Y65.6320 
G01 X102.0260 Y65.6513 
G01 X102.0336 Y65.6696 
G01 X102.0336 Y65.6829 
G01 X102.0367 Y65.6959 
G01 X102.0336 Y65.7155 
G01 X102.0336 Y65.7353 
G01 X102.0285 Y65.7476 
G01 X102.0264 Y65.7607 
G01 X102.0160 Y65.7777 
G01 X102.0084 Y65.7960 
G01 X101.9990 Y65.8054 
G01 X101.9921 Y65.8167 
G01 X101.9760 Y65.8284 
G01 X101.9620 Y65.8424 
G01 X101.9497 Y65.8475 
G01 X101.8647 Y65.9093 
G01 X101.7417 Y66.0322 
G01 X101.6395 Y66.1729 
G01 X101.6162 Y66.2186 
G01 X101.7037 Y66.2186 
G01 X101.7855 Y66.0963 
G01 X101.9288 Y65.9530 
G01 X102.0972 Y65.8404 
G01 X102.2845 Y65.7629 
G01 X102.4832 Y65.7233 
G01 X104.5654 Y65.7233 
G01 X104.7642 Y65.7629 
G01 X104.9514 Y65.8404 
G01 X105.1199 Y65.9530 
G01 X105.2632 Y66.0963 
G01 X105.3757 Y66.2648 
G01 X105.4533 Y66.4520 
G01 X105.4928 Y66.6507 
G01 X105.4928 Y66.8534 
G01 X105.4533 Y67.0521 
G01 X105.3757 Y67.2393 
G01 X105.2632 Y67.4078 
G01 X105.1199 Y67.5511 
G01 X104.9514 Y67.6637 
G01 X104.7642 Y67.7412 
G01 X104.5654 Y67.7807 
G01 X102.4832 Y67.7807 
G01 X102.2845 Y67.7412 
G01 X102.0972 Y67.6637 
G01 X101.9288 Y67.5511 
G01 X101.7855 Y67.4078 
G01 X101.7037 Y67.2854 
G01 X101.6162 Y67.2854 
G01 X101.6395 Y67.3311 
G01 X101.7417 Y67.4718 
G01 X101.8647 Y67.5948 
G01 X101.9497 Y67.6566 
G01 X101.9620 Y67.6616 
G01 X101.9760 Y67.6757 
G01 X101.9921 Y67.6873 
G01 X101.9990 Y67.6987 
G01 X102.0084 Y67.7081 
G01 X102.0160 Y67.7264 
G01 X102.0264 Y67.7433 
G01 X102.0285 Y67.7565 
G01 X102.0336 Y67.7688 
G01 X102.0336 Y67.7886 
G01 X102.0367 Y67.8082 
G01 X102.0336 Y67.8212 
G01 X102.0336 Y67.8344 
G01 X102.0260 Y67.8528 
G01 X102.0213 Y67.8721 
G01 X102.0135 Y67.8828 
G01 X102.0084 Y67.8951 
G01 X101.9944 Y67.9092 
G01 X101.9827 Y67.9252 
G01 X101.9714 Y67.9322 
G01 X101.9620 Y67.9416 
G01 X101.9437 Y67.9492 
G01 X101.9267 Y67.9595 
G01 X101.9136 Y67.9616 
G01 X101.7428 Y68.0324 
G01 X101.3248 Y68.4503 
G01 X101.0986 Y68.9965 
G01 X101.0986 Y69.5876 
G01 X101.3248 Y70.1337 
G01 X101.7428 Y70.5517 
G01 X101.9136 Y70.6225 
G01 X101.9267 Y70.6245 
G01 X101.9437 Y70.6349 
G01 X101.9620 Y70.6425 
G01 X101.9714 Y70.6519 
G01 X101.9827 Y70.6589 
G01 X101.9944 Y70.6749 
G01 X102.0084 Y70.6890 
G01 X102.0135 Y70.7012 
G01 X102.0213 Y70.7120 
G01 X102.0260 Y70.7313 
G01 X102.0336 Y70.7496 
G01 X102.0336 Y70.7629 
G01 X102.0367 Y70.7759 
G01 X102.0336 Y70.7955 
G01 X102.0336 Y70.8153 
G01 X102.0285 Y70.8276 
G01 X102.0264 Y70.8407 
G01 X102.0160 Y70.8577 
G01 X102.0084 Y70.8760 
G01 X101.9990 Y70.8854 
G01 X101.9921 Y70.8967 
G01 X101.9760 Y70.9084 
G01 X101.9620 Y70.9224 
G01 X101.9497 Y70.9275 
G01 X101.8647 Y70.9893 
G01 X101.7417 Y71.1122 
G01 X101.6395 Y71.2529 
G01 X101.6162 Y71.2986 
G01 X101.7037 Y71.2986 
G01 X101.7855 Y71.1763 
G01 X101.9288 Y71.0330 
G01 X102.0972 Y70.9204 
G01 X102.2845 Y70.8429 
G01 X102.4832 Y70.8033 
G01 X104.5654 Y70.8033 
G01 X104.7642 Y70.8429 
G01 X104.9514 Y70.9204 
G01 X105.1199 Y71.0330 
G01 X105.2632 Y71.1763 
G01 X105.3757 Y71.3448 
G01 X105.4533 Y71.5320 
G01 X105.4928 Y71.7307 
G01 X105.4928 Y71.9334 
G01 X105.4533 Y72.1321 
G01 X105.3757 Y72.3193 
G01 X105.2632 Y72.4878 
G01 X105.1199 Y72.6311 
G01 X104.9514 Y72.7437 
G01 X104.7642 Y72.8212 
G01 X104.5654 Y72.8607 
G01 X102.4832 Y72.8607 
G01 X102.2845 Y72.8212 
G01 X102.0972 Y72.7437 
G01 X101.9288 Y72.6311 
G01 X101.7855 Y72.4878 
G01 X101.7037 Y72.3654 
G01 X101.6162 Y72.3654 
G01 X101.6395 Y72.4111 
G01 X101.7417 Y72.5518 
G01 X101.8647 Y72.6748 
G01 X101.9497 Y72.7366 
G01 X101.9620 Y72.7416 
G01 X101.9760 Y72.7557 
G01 X101.9921 Y72.7673 
G01 X101.9990 Y72.7787 
G01 X102.0084 Y72.7881 
G01 X102.0160 Y72.8064 
G01 X102.0264 Y72.8233 
G01 X102.0285 Y72.8365 
G01 X102.0336 Y72.8488 
G01 X102.0336 Y72.8686 
G01 X102.0367 Y72.8882 
G01 X102.0336 Y72.9011 
G01 X102.0336 Y72.9144 
G01 X102.0260 Y72.9328 
G01 X102.0213 Y72.9521 
G01 X102.0135 Y72.9628 
G01 X102.0084 Y72.9751 
G01 X101.9944 Y72.9892 
G01 X101.9827 Y73.0052 
G01 X101.9714 Y73.0122 
G01 X101.9620 Y73.0216 
G01 X101.9437 Y73.0292 
G01 X101.9267 Y73.0395 
G01 X101.9136 Y73.0416 
G01 X101.7428 Y73.1124 
G01 X101.3248 Y73.5303 
G01 X101.0986 Y74.0765 
G01 X101.0986 Y74.6676 
G01 X101.3248 Y75.2137 
G01 X101.6596 Y75.5485 
G01 X101.6847 Y75.6092 
G01 X101.6847 Y75.6749 
G01 X101.6603 Y75.7338 
G01 X101.6132 Y75.7820 
G01 X101.3248 Y76.0703 
G01 X101.0986 Y76.6165 
G01 X101.0986 Y77.2076 
G01 X101.3248 Y77.7537 
G01 X101.6596 Y78.0885 
G01 X101.6847 Y78.1492 
G01 X101.6847 Y78.2149 
G01 X101.6603 Y78.2738 
G01 X101.6132 Y78.3220 
G01 X101.3248 Y78.6103 
G01 X101.0986 Y79.1565 
G01 X101.0986 Y79.7476 
G01 X101.3248 Y80.2937 
G01 X101.7428 Y80.7117 
G01 X102.2889 Y80.9379 
G01 X104.7597 Y80.9379 
G01 X105.3058 Y80.7117 
G01 X105.7238 Y80.2937 
G01 X105.7945 Y80.1230 
G01 X105.7966 Y80.1098 
G01 X105.8070 Y80.0929 
G01 X105.8146 Y80.0746 
G01 X105.8240 Y80.0652 
G01 X105.8309 Y80.0538 
G01 X105.8470 Y80.0422 
G01 X105.8610 Y80.0281 
G01 X105.8733 Y80.0230 
G01 X105.8841 Y80.0152 
G01 X105.9034 Y80.0106 
G01 X105.9217 Y80.0030 
G01 X105.9350 Y80.0030 
G01 X105.9479 Y79.9999 
G01 X105.9675 Y80.0030 
G01 X105.9874 Y80.0030 
G01 X105.9997 Y80.0081 
G01 X106.0128 Y80.0102 
G01 X106.0297 Y80.0205 
G01 X106.0481 Y80.0281 
G01 X106.0575 Y80.0375 
G01 X106.0688 Y80.0445 
G01 X106.0805 Y80.0605 
G01 X106.0945 Y80.0746 
G01 X106.0996 Y80.0869 
G01 X106.1613 Y80.1718 
G01 X106.2843 Y80.2948 
G01 X106.4250 Y80.3970 
G01 X106.5800 Y80.4760 
G01 X106.7454 Y80.5297 
G01 X106.7628 Y80.5325 
G01 X106.7628 Y80.4529 
G01 X106.7041 Y80.4412 
G01 X106.5168 Y80.3637 
G01 X106.3484 Y80.2511 
G01 X106.2051 Y80.1078 
G01 X106.0925 Y79.9393 
G01 X106.0149 Y79.7521 
G01 X105.9754 Y79.5534 
G01 X105.9754 Y79.3507 
G01 X106.0149 Y79.1520 
G01 X106.0925 Y78.9648 
G01 X106.2051 Y78.7963 
G01 X106.3484 Y78.6530 
G01 X106.5168 Y78.5404 
G01 X106.7041 Y78.4629 
G01 X106.9028 Y78.4233 
G01 X108.9850 Y78.4233 
G01 X109.1838 Y78.4629 
G01 X109.3710 Y78.5404 
G01 X109.5395 Y78.6530 
G01 X109.6828 Y78.7963 
G01 X109.7645 Y78.9186 
G01 X109.8520 Y78.9186 
G01 X109.8287 Y78.8729 
G01 X109.7265 Y78.7322 
G01 X109.6035 Y78.6093 
G01 X109.5185 Y78.5475 
G01 X109.5062 Y78.5424 
G01 X109.4922 Y78.5284 
G01 X109.4761 Y78.5167 
G01 X109.4692 Y78.5054 
G01 X109.4598 Y78.4960 
G01 X109.4522 Y78.4777 
G01 X109.4418 Y78.4607 
G01 X109.4397 Y78.4476 
G01 X109.4347 Y78.4353 
G01 X109.4347 Y78.4155 
G01 X109.4316 Y78.3959 
G01 X109.4347 Y78.3829 
G01 X109.4347 Y78.3696 
G01 X109.4423 Y78.3513 
G01 X109.4469 Y78.3320 
G01 X109.4547 Y78.3212 
G01 X109.4598 Y78.3089 
G01 X109.4738 Y78.2949 
G01 X109.4855 Y78.2789 
G01 X109.4968 Y78.2719 
G01 X109.5062 Y78.2625 
G01 X109.5246 Y78.2549 
G01 X109.5415 Y78.2445 
G01 X109.5546 Y78.2425 
G01 X109.7254 Y78.1717 
G01 X110.1434 Y77.7537 
G01 X110.3696 Y77.2076 
G01 X110.3696 Y76.6165 
G01 X110.1434 Y76.0703 
G01 X109.8551 Y75.7820 
G01 X109.8093 Y75.7363 
G01 X109.7835 Y75.6749 
G01 X109.7835 Y75.6092 
G01 X109.8086 Y75.5485 
G01 X110.1434 Y75.2137 
G01 X110.3696 Y74.6676 
G01 X110.3696 Y74.0765 
G01 X110.1434 Y73.5303 
G01 X109.8086 Y73.1956 
G01 X109.7835 Y73.1349 
G01 X109.7835 Y73.0692 
G01 X109.8079 Y73.0102 
G01 X109.8551 Y72.9621 
G01 X110.1434 Y72.6737 
G01 X110.3696 Y72.1276 
G01 X110.3696 Y71.5365 
G01 X110.1434 Y70.9903 
G01 X109.8551 Y70.7020 
G01 X109.8093 Y70.6563 
G01 X109.7835 Y70.5949 
G01 X109.7835 Y70.5292 
G01 X109.8086 Y70.4685 
G01 X110.1434 Y70.1337 
G01 X110.3696 Y69.5876 
G01 X110.3696 Y68.9965 
G01 X110.1434 Y68.4503 
G01 X109.8551 Y68.1620 
G01 X109.8093 Y68.1163 
G01 X109.7835 Y68.0549 
G01 X109.7835 Y67.9892 
G01 X109.8086 Y67.9285 
G01 X110.1434 Y67.5937 
G01 X110.3696 Y67.0476 
G01 X110.3696 Y66.4565 
G01 X110.1434 Y65.9103 
G01 X109.8551 Y65.6220 
G01 X109.8093 Y65.5763 
G01 X109.7835 Y65.5149 
G01 X109.7835 Y65.4492 
G01 X109.8086 Y65.3885 
G01 X110.1434 Y65.0537 
G01 X110.3696 Y64.5076 
G01 X110.3696 Y63.9165 
G01 X110.1434 Y63.3703 
G01 X109.7254 Y62.9524 
G01 X109.5546 Y62.8816 
G01 X109.5415 Y62.8795 
G01 X109.5246 Y62.8692 
G01 X109.5062 Y62.8616 
G01 X109.4968 Y62.8522 
G01 X109.4855 Y62.8452 
G01 X109.4738 Y62.8292 
G01 X109.4598 Y62.8151 
G01 X109.4547 Y62.8028 
G01 X109.4469 Y62.7921 
G01 X109.4423 Y62.7728 
G01 X109.4347 Y62.7544 
G01 X109.4347 Y62.7412 
G01 X109.4316 Y62.7282 
G01 X109.4347 Y62.7086 
G01 X109.4347 Y62.6888 
G01 X109.4397 Y62.6765 
G01 X109.4418 Y62.6633 
G01 X109.4522 Y62.6464 
G01 X109.4598 Y62.6281 
G01 X109.4692 Y62.6187 
G01 X109.4761 Y62.6073 
G01 X109.4922 Y62.5957 
G01 X109.5062 Y62.5816 
G01 X109.5185 Y62.5766 
G01 X109.6035 Y62.5148 
G01 X109.7265 Y62.3918 
G01 X109.8287 Y62.2511 
G01 X109.8520 Y62.2054 
G01 X109.7645 Y62.2054 
G01 X109.6828 Y62.3278 
G01 X109.5395 Y62.4711 
G01 X109.3710 Y62.5837 
G01 X109.1838 Y62.6612 
G01 X108.9850 Y62.7007 
G01 X106.9028 Y62.7007 
G01 X106.7041 Y62.6612 
G01 X106.5168 Y62.5837 
G01 X106.3484 Y62.4711 
G01 X106.2051 Y62.3278 
G01 X106.0925 Y62.1593 
G01 X106.0149 Y61.9721 
G01 X105.9754 Y61.7734 
G01 X105.9754 Y61.5707 
G01 X106.0149 Y61.3720 
G01 X106.0925 Y61.1848 
G01 X106.2051 Y61.0163 
G01 X106.3484 Y60.8730 
G01 X106.5168 Y60.7604 
G01 X106.7041 Y60.6829 
G01 X106.9028 Y60.6433 
G01 X108.9850 Y60.6433 
G01 X109.1838 Y60.6829 
G01 X109.3710 Y60.7604 
G01 X109.5395 Y60.8730 
G01 X109.6828 Y61.0163 
G01 X109.7645 Y61.1386 
G01 X109.8520 Y61.1386 
G01 X109.8287 Y61.0929 
G01 X109.7265 Y60.9522 
G01 X109.6035 Y60.8293 
G01 X109.5185 Y60.7675 
G01 X109.5062 Y60.7624 
G01 X109.4922 Y60.7484 
G01 X109.4761 Y60.7367 
G01 X109.4692 Y60.7254 
G01 X109.4598 Y60.7160 
G01 X109.4522 Y60.6977 
G01 X109.4418 Y60.6807 
G01 X109.4397 Y60.6676 
G01 X109.4347 Y60.6553 
G01 X109.4347 Y60.6355 
G01 X109.4316 Y60.6159 
G01 X109.4347 Y60.6029 
G01 X109.4347 Y60.5896 
G01 X109.4423 Y60.5713 
G01 X109.4469 Y60.5520 
G01 X109.4547 Y60.5412 
G01 X109.4598 Y60.5290 
G01 X109.4738 Y60.5149 
G01 X109.4855 Y60.4989 
G01 X109.4968 Y60.4919 
G01 X109.5062 Y60.4825 
G01 X109.5246 Y60.4749 
G01 X109.5415 Y60.4645 
G01 X109.5546 Y60.4625 
G01 X109.7254 Y60.3917 
G01 X110.1434 Y59.9737 
G01 X110.3696 Y59.4276 
G01 X110.3696 Y58.8365 
G01 X110.1434 Y58.2903 
G01 X109.8551 Y58.0020 
G01 X109.8093 Y57.9563 
G01 X109.7835 Y57.8949 
G01 X109.7835 Y57.8292 
G01 X109.8086 Y57.7685 
G01 X110.1434 Y57.4337 
G01 X110.3696 Y56.8876 
G01 X110.3696 Y56.2965 
G01 X110.1434 Y55.7503 
G01 X109.8551 Y55.4620 
G01 X109.8093 Y55.4163 
G01 X109.7835 Y55.3549 
G01 X109.7835 Y55.2892 
G01 X109.8086 Y55.2285 
G01 X110.1434 Y54.8937 
G01 X110.3696 Y54.3476 
G01 X110.3696 Y53.7565 
G01 X110.1434 Y53.2103 
G01 X109.8551 Y52.9220 
G01 X109.8093 Y52.8763 
G01 X109.7835 Y52.8149 
G01 X109.7835 Y52.7492 
G01 X109.8086 Y52.6885 
G01 X110.1434 Y52.3537 
G01 X110.3696 Y51.8076 
G01 X110.3696 Y51.2165 
G01 X110.1434 Y50.6703 
G01 X109.8551 Y50.3820 
G01 X109.8086 Y50.3356 
G01 X109.7836 Y50.2751 
G01 X109.7835 Y50.2092 
G01 X109.8086 Y50.1485 
G01 X110.1434 Y49.8137 
G01 X110.3696 Y49.2676 
G01 X110.3696 Y48.6765 
G01 X110.1434 Y48.1303 
G01 X109.8551 Y47.8420 
G01 X109.8093 Y47.7963 
G01 X109.7835 Y47.7349 
G01 X109.7835 Y47.6692 
G01 X109.8086 Y47.6085 
G01 X110.1434 Y47.2737 
G01 X110.3696 Y46.7276 
G01 X110.3696 Y46.1365 
G01 X110.1434 Y45.5903 
G01 X109.8551 Y45.3020 
G01 X109.8093 Y45.2563 
G01 X109.7835 Y45.1949 
G01 X109.7835 Y45.1292 
G01 X109.8086 Y45.0685 
G01 X110.1434 Y44.7337 
G01 X110.3696 Y44.1876 
G01 X110.3696 Y43.5965 
G01 X110.1434 Y43.0503 
G01 X109.7254 Y42.6324 
G01 X109.5546 Y42.5616 
G01 X109.5415 Y42.5595 
G01 X109.5246 Y42.5492 
G01 X109.5062 Y42.5416 
G01 X109.4968 Y42.5322 
G01 X109.4855 Y42.5252 
G01 X109.4738 Y42.5092 
G01 X109.4598 Y42.4951 
G01 X109.4547 Y42.4828 
G01 X109.4469 Y42.4721 
G01 X109.4423 Y42.4528 
G01 X109.4347 Y42.4344 
G01 X109.4347 Y42.4212 
G01 X109.4316 Y42.4082 
G01 X109.4347 Y42.3886 
G01 X109.4347 Y42.3688 
G01 X109.4397 Y42.3565 
G01 X109.4418 Y42.3433 
G01 X109.4522 Y42.3264 
G01 X109.4598 Y42.3081 
G01 X109.4692 Y42.2987 
G01 X109.4761 Y42.2873 
G01 X109.4922 Y42.2757 
G01 X109.5062 Y42.2616 
G01 X109.5185 Y42.2566 
G01 X109.6035 Y42.1948 
G01 X109.6649 Y42.1334 
G01 X109.5572 Y42.1334 
G01 X109.5395 Y42.1511 
G01 X109.3710 Y42.2637 
G01 X109.1838 Y42.3412 
G01 X108.9850 Y42.3807 
G01 X106.9028 Y42.3807 
G01 X106.7041 Y42.3412 
G01 X106.5168 Y42.2637 
G01 X106.3484 Y42.1511 
G01 X106.2051 Y42.0078 
G01 X106.0925 Y41.8393 
G01 X106.0149 Y41.6521 
G01 X105.9754 Y41.4534 
G01 X105.9754 Y41.2507 
G01 X106.0149 Y41.0520 
G01 X106.0925 Y40.8648 
G01 X106.2051 Y40.6963 
G01 X106.3484 Y40.5530 
G01 X106.5168 Y40.4404 
G01 X106.7041 Y40.3629 
G01 X106.9028 Y40.3233 
G01 X108.9850 Y40.3233 
G01 X109.1838 Y40.3629 
G01 X109.3710 Y40.4404 
G01 X109.5395 Y40.5530 
G01 X109.6828 Y40.6963 
G01 X109.7953 Y40.8648 
G01 X109.8729 Y41.0520 
G01 X109.8758 Y41.0666 
G01 X109.9527 Y41.0666 
G01 X109.9077 Y40.9279 
G01 X109.8287 Y40.7729 
G01 X109.7265 Y40.6322 
G01 X109.6035 Y40.5093 
G01 X109.5185 Y40.4475 
G01 X109.5062 Y40.4424 
G01 X109.4922 Y40.4284 
G01 X109.4761 Y40.4167 
G01 X109.4692 Y40.4054 
G01 X109.4598 Y40.3960 
G01 X109.4522 Y40.3777 
G01 X109.4418 Y40.3607 
G01 X109.4397 Y40.3476 
G01 X109.4347 Y40.3353 
G01 X109.4347 Y40.3155 
G01 X109.4316 Y40.2959 
G01 X109.4347 Y40.2829 
G01 X109.4347 Y40.2696 
G01 X109.4423 Y40.2513 
G01 X109.4469 Y40.2320 
G01 X109.4547 Y40.2212 
G01 X109.4598 Y40.2090 
G01 X109.4738 Y40.1949 
G01 X109.4855 Y40.1789 
G01 X109.4968 Y40.1719 
G01 X109.5062 Y40.1625 
G01 X109.5246 Y40.1549 
G01 X109.5415 Y40.1445 
G01 X109.5546 Y40.1425 
G01 X109.7254 Y40.0717 
G01 X110.1434 Y39.6537 
G01 X110.3696 Y39.1076 
G01 X110.3696 Y38.5165 
G01 X110.1434 Y37.9703 
G01 X109.8551 Y37.6820 
G01 X109.8093 Y37.6363 
G01 X109.7835 Y37.5749 
G01 X109.7835 Y37.5092 
G01 X109.8086 Y37.4485 
G01 X109.9694 Y37.2878 
G01 X110.0300 Y37.2626 
G01 X111.1970 Y37.2626 
G01 X111.5611 Y37.1118 
G01 X111.8143 Y36.8587 
G01 X111.8750 Y36.8335 
G01 X111.9406 Y36.8335 
G01 X111.9996 Y36.8580 
G01 X112.0478 Y36.9051 
G01 X112.0729 Y36.9658 
G01 X112.0729 Y86.7844 
G01 X112.2140 Y87.1252 
G01 X112.4748 Y87.3860 
G01 X112.8156 Y87.5271 
G01 X151.1844 Y87.5271 
G01 X151.5252 Y87.3860 
G01 X151.7860 Y87.1252 
G01 X151.9271 Y86.7844 
G01 X151.9271 Y36.4156 
G01 X151.7860 Y36.0748 
G01 X151.5252 Y35.8140 
G01 X151.1844 Y35.6729 
G01 X113.3658 Y35.6729 
G01 X113.3051 Y35.6478 
G01 X113.2587 Y35.6013 
G01 X113.2335 Y35.5406 
G01 X113.2335 Y35.4750 
G01 X113.2587 Y35.4143 
G01 X113.3051 Y35.3678 
G01 X119.1332 Y29.5397 
G01 X119.1939 Y29.5146 
G01 X147.3229 Y29.5146 
G01 X147.3835 Y29.5397 
G01 X147.4300 Y29.5862 
G01 X179.1536 Y61.3098 
G01 X179.5177 Y61.4606 
G01 X202.7307 Y61.4606 
G01 X202.7914 Y61.4857 
G01 X202.8378 Y61.5322 
G01 X202.9057 Y61.6000 
G01 X202.9514 Y61.6458 
G01 X202.9773 Y61.7072 
G01 X202.9773 Y61.7728 
G01 X202.9521 Y61.8335 
G01 X202.6245 Y62.1611 
G01 X202.3964 Y62.7119 
G01 X202.3964 Y63.3081 
G01 X202.6245 Y63.8589 
G01 X202.9057 Y64.1400 
G01 X202.9514 Y64.1858 
G01 X202.9773 Y64.2472 
G01 X202.9773 Y64.3128 
G01 X202.9521 Y64.3735 
G01 X202.6245 Y64.7011 
G01 X202.3964 Y65.2519 
G01 X202.3964 Y65.8481 
G01 X202.6245 Y66.3989 
G01 X203.0461 Y66.8204 
G01 X203.5969 Y67.0486 
G01 X206.0981 Y67.0486 
G01 X206.6489 Y66.8205 
G01 X207.0705 Y66.3989 
G01 X207.2986 Y65.8481 
G01 X207.2986 Y65.2519 
G01 X207.0705 Y64.7011 
G01 X206.7429 Y64.3735 
G01 X206.7177 Y64.3128 
G01 X206.7177 Y64.2472 
G01 X206.7421 Y64.1882 
G01 X206.7893 Y64.1400 
G01 X207.0705 Y63.8589 
G01 X207.2986 Y63.3081 
G01 X207.2986 Y62.7119 
G01 X207.0705 Y62.1611 
G01 X206.7429 Y61.8335 
G01 X206.7177 Y61.7728 
G01 X206.7177 Y61.7072 
G01 X206.7421 Y61.6482 
G01 X206.7893 Y61.6000 
G01 X207.0705 Y61.3189 
G01 X207.2986 Y60.7681 
G01 X207.2986 Y60.1719 
G01 X207.0705 Y59.6211 
G01 X206.7429 Y59.2935 
G01 X206.7177 Y59.2328 
G01 X206.7177 Y59.1672 
G01 X206.7421 Y59.1082 
G01 X206.7893 Y59.0600 
G01 X207.0705 Y58.7789 
G01 X207.2986 Y58.2281 
G01 X207.2986 Y57.6319 
G01 X207.0705 Y57.0811 
G01 X206.7429 Y56.7535 
G01 X206.7177 Y56.6928 
G01 X206.7177 Y56.6272 
G01 X206.7421 Y56.5682 
G01 X206.7893 Y56.5200 
G01 X206.9036 Y56.4057 
G01 X206.9643 Y56.3806 
G01 X207.9441 Y56.3806 
G01 X208.0048 Y56.4057 
G01 X208.0513 Y56.4522 
G01 X210.9843 Y59.3852 
G01 X211.0094 Y59.4459 
G01 X211.0094 Y70.5541 
G01 X210.9843 Y70.6148 
G01 X210.9477 Y70.6513 
G01 X208.6613 Y72.9378 
G01 X208.6513 Y72.9477 
G01 X208.6148 Y72.9843 
G01 X208.5541 Y73.0094 
G01 X195.8030 Y73.0094 
G01 X195.4389 Y73.1602 
G01 X195.1138 Y73.4853 
G01 X191.7382 Y76.8609 
G01 X191.7145 Y76.8846 
G01 X191.6919 Y76.9072 
G01 X191.6612 Y76.9199 
G01 X191.6312 Y76.9324 
G01 X191.5980 Y76.9324 
G01 X191.5655 Y76.9324 
G01 X191.5349 Y76.9197 
G01 X191.5048 Y76.9072 
G01 X191.4810 Y76.8834 
G01 X191.4584 Y76.8608 
G01 X191.4457 Y76.8302 
G01 X191.4332 Y76.8001 
G01 X191.3911 Y76.6977 
G01 X191.3816 Y76.6746 
G01 X191.3661 Y76.6370 
G01 X191.3104 Y76.5016 
G01 X191.1971 Y76.3878 
G01 X191.1803 Y76.3709 
G01 X191.1508 Y76.3413 
G01 X191.0501 Y76.2402 
G01 X190.9034 Y76.1791 
G01 X190.8720 Y76.1660 
G01 X190.8428 Y76.1539 
G01 X190.7097 Y76.0984 
G01 X190.5531 Y76.0980 
G01 X190.5147 Y76.0980 
G01 X190.4874 Y76.0979 
G01 X179.2515 Y76.0734 
G01 X179.2187 Y76.0734 
G01 X179.1863 Y76.0733 
G01 X179.0327 Y76.0730 
G01 X178.9964 Y76.0729 
G01 X178.9671 Y76.0728 
G01 X178.8175 Y76.0725 
G01 X178.6723 Y76.1323 
G01 X178.6527 Y76.1404 
G01 X178.6116 Y76.1573 
G01 X178.4765 Y76.2129 
G01 X178.3625 Y76.3265 
G01 X178.3455 Y76.3434 
G01 X178.3160 Y76.3728 
G01 X178.2151 Y76.4732 
G01 X178.1539 Y76.6202 
G01 X178.1421 Y76.6485 
G01 X178.1286 Y76.6808 
G01 X178.0733 Y76.8137 
G01 X178.0730 Y76.9668 
G01 X178.0729 Y77.0029 
G01 X178.0728 Y77.0324 
G01 X178.0725 Y77.1824 
G01 X178.0725 Y77.2146 
G01 X178.0727 Y77.2464 
G01 X178.0720 Y77.4599 
G01 X178.0740 Y77.4860 
G01 X178.0719 Y77.4925 
G01 X178.0719 Y77.4994 
G01 X178.0618 Y77.5235 
G01 X178.0537 Y77.5485 
G01 X178.0493 Y77.5537 
G01 X178.0467 Y77.5600 
G01 X178.0281 Y77.5785 
G01 X178.0111 Y77.5984 
G01 X178.0050 Y77.6015 
G01 X178.0001 Y77.6064 
G01 X177.9759 Y77.6163 
G01 X177.9526 Y77.6282 
G01 X177.9457 Y77.6288 
G01 X177.9394 Y77.6314 
G01 X177.9132 Y77.6313 
G01 X177.8871 Y77.6334 
G01 X177.8806 Y77.6313 
G01 X177.8737 Y77.6312 
G01 X177.8496 Y77.6212 
G01 X177.8246 Y77.6131 
G01 X177.8194 Y77.6086 
G01 X177.8131 Y77.6060 
G01 X177.7946 Y77.5874 
G01 X177.7747 Y77.5704 
G01 X177.7716 Y77.5643 
G01 X177.7667 Y77.5595 
G01 X177.7568 Y77.5352 
G01 X177.6855 Y77.3953 
G01 X177.5777 Y77.2470 
G01 X177.4480 Y77.1173 
G01 X177.2997 Y77.0095 
G01 X177.1363 Y76.9263 
G01 X176.9618 Y76.8696 
G01 X176.9303 Y76.8646 
G01 X176.9303 Y76.9417 
G01 X176.9440 Y76.9439 
G01 X177.1070 Y76.9969 
G01 X177.2597 Y77.0747 
G01 X177.3984 Y77.1754 
G01 X177.5196 Y77.2966 
G01 X177.6203 Y77.4353 
G01 X177.6981 Y77.5880 
G01 X177.7511 Y77.7510 
G01 X177.7779 Y77.9203 
G01 X177.7779 Y78.0917 
G01 X177.7511 Y78.2610 
G01 X177.6981 Y78.4240 
G01 X177.6203 Y78.5767 
G01 X177.5196 Y78.7154 
G01 X177.3984 Y78.8366 
G01 X177.2597 Y78.9373 
G01 X177.1070 Y79.0151 
G01 X176.9440 Y79.0681 
G01 X176.7747 Y79.0949 
G01 X176.6033 Y79.0949 
G01 X176.4340 Y79.0681 
G01 X176.2710 Y79.0151 
G01 X176.1183 Y78.9373 
G01 X175.9796 Y78.8366 
G01 X175.8584 Y78.7154 
G01 X175.7577 Y78.5767 
G01 X175.7387 Y78.5394 
G01 X175.6532 Y78.5394 
G01 X175.6925 Y78.6167 
G01 X175.8003 Y78.7650 
G01 X175.9300 Y78.8947 
G01 X175.9441 Y78.9011 
G01 X175.9582 Y78.9151 
G01 X175.9742 Y78.9268 
G01 X175.9812 Y78.9382 
G01 X175.9906 Y78.9476 
G01 X175.9982 Y78.9659 
G01 X176.0085 Y78.9828 
G01 X176.0106 Y78.9960 
G01 X176.0157 Y79.0082 
G01 X176.0157 Y79.0281 
G01 X176.0188 Y79.0477 
G01 X176.0157 Y79.0606 
G01 X176.0157 Y79.0739 
G01 X176.0081 Y79.0923 
G01 X176.0035 Y79.1116 
G01 X175.9957 Y79.1223 
G01 X175.9906 Y79.1346 
G01 X175.9765 Y79.1486 
G01 X175.9649 Y79.1647 
G01 X175.9535 Y79.1716 
G01 X175.9441 Y79.1811 
G01 X175.9258 Y79.1886 
G01 X175.9089 Y79.1990 
G01 X175.8957 Y79.2011 
G01 X175.8132 Y79.2353 
G01 X175.3783 Y79.6702 
G01 X175.1429 Y80.2385 
G01 X175.1429 Y80.8535 
G01 X175.3783 Y81.4218 
G01 X175.8132 Y81.8567 
G01 X176.3815 Y82.0921 
G01 X176.9965 Y82.0921 
G01 X177.5648 Y81.8567 
G01 X177.7586 Y81.6630 
G01 X177.7816 Y81.6399 
G01 X177.8049 Y81.6166 
G01 X177.8353 Y81.6040 
G01 X177.8656 Y81.5915 
G01 X177.8987 Y81.5915 
G01 X177.9312 Y81.5915 
G01 X177.9621 Y81.6043 
G01 X177.9919 Y81.6166 
G01 X178.0154 Y81.6401 
G01 X178.0384 Y81.6631 
G01 X178.0509 Y81.6935 
G01 X178.0635 Y81.7238 
G01 X178.0635 Y81.7573 
G01 X178.0635 Y81.7894 
G01 X178.0532 Y86.9866 
G01 X178.0532 Y87.0195 
G01 X178.0406 Y87.0498 
G01 X178.0280 Y87.0802 
G01 X178.0046 Y87.1036 
G01 X177.9816 Y87.1266 
G01 X177.9506 Y87.1395 
G01 X177.9209 Y87.1518 
G01 X177.8877 Y87.1518 
G01 X177.8552 Y87.1518 
G01 X177.8247 Y87.1391 
G01 X177.7976 Y87.1279 
G01 X175.5804 Y87.1279 
G01 X175.3797 Y87.2110 
G01 X175.2260 Y87.3647 
G01 X175.1429 Y87.5654 
G01 X175.1429 Y89.7826 
G01 X175.1961 Y89.9112 
G01 X175.1961 Y89.9768 
G01 X175.1429 Y90.1054 
G01 X175.1429 Y90.4206 
G01 X175.1178 Y90.4813 
G01 X175.0713 Y90.5278 
G01 X171.1648 Y94.4343 
G01 X171.1041 Y94.4594 
G01 X170.6640 Y94.4594 
G01 X170.6034 Y94.4343 
G01 X170.2302 Y94.0611 
G01 X169.6281 Y93.8117 
G01 X166.7919 Y93.8117 
G01 X166.1898 Y94.0611 
G01 X165.7289 Y94.5220 
G01 X165.4795 Y95.1241 
G01 X165.4795 Y95.7759 
G01 X165.7289 Y96.3780 
G01 X166.1898 Y96.8389 
G01 X166.7919 Y97.0883 
G01 X169.6281 Y97.0883 
G01 X170.2302 Y96.8389 
G01 X170.6034 Y96.4657 
G01 X170.6640 Y96.4406 
G01 X171.4024 Y96.4406 
G01 X171.4631 Y96.4657 
G01 X171.5088 Y96.5115 
G01 X171.5346 Y96.5729 
G01 X171.5346 Y96.6385 
G01 X171.5320 Y96.6449 
G01 X171.3717 Y97.0319 
G01 X171.3717 Y99.8681 
G01 X171.6211 Y100.4702 
G01 X172.0820 Y100.9311 
G01 X172.6841 Y101.1805 
G01 X173.3359 Y101.1805 
G01 X173.9380 Y100.9311 
G01 X174.3989 Y100.4702 
G01 X174.6483 Y99.8681 
G01 X174.6483 Y97.0319 
G01 X174.3989 Y96.4298 
G01 X173.9380 Y95.9689 
G01 X173.3359 Y95.7195 
G01 X173.0472 Y95.7195 
G01 X172.9865 Y95.6944 
G01 X172.9400 Y95.6479 
G01 X172.9149 Y95.5872 
G01 X172.9149 Y95.5216 
G01 X172.9400 Y95.4609 
G01 X172.9865 Y95.4144 
G01 X175.6157 Y92.7852 
G01 X175.6764 Y92.7601 
G01 X177.7976 Y92.7601 
G01 X177.9983 Y92.6770 
G01 X178.1520 Y92.5233 
G01 X178.2292 Y92.3369 
G01 X178.2537 Y92.2778 
G01 X178.3008 Y92.2297 
G01 X178.3615 Y92.2046 
G01 X178.7681 Y92.2046 
G01 X178.8288 Y92.2297 
G01 X178.8753 Y92.2762 
G01 X181.8389 Y95.2398 
G01 X182.2030 Y95.3906 
G01 X197.7970 Y95.3906 
G01 X198.1611 Y95.2398 
G01 X198.4862 Y94.9147 
G01 X201.5611 Y91.8398 
G01 X201.8398 Y91.5611 
G01 X201.9906 Y91.1970 
G01 X201.9906 Y86.4459 
G01 X202.0157 Y86.3852 
G01 X202.0622 Y86.3387 
G01 X207.3852 Y81.0157 
G01 X207.4459 Y80.9906 
G01 X210.2970 Y80.9906 
G01 X210.6611 Y80.8398 
G01 X210.9862 Y80.5147 
G01 X215.9398 Y75.5611 
G01 X216.0906 Y75.1970 
G01 X216.0906 Y57.7675 
G01 X216.1157 Y57.7068 
G01 X216.1622 Y57.6603 
G01 X216.2229 Y57.6352 
G01 X216.2885 Y57.6352 
G01 X216.3492 Y57.6603 
G01 X216.3957 Y57.7068 
G01 X220.2140 Y61.5252 
G01 X220.4748 Y61.7860 
G01 X220.8156 Y61.9271 
G01 X227.9406 Y61.9271 
G01 X228.0013 Y61.9522 
G01 X228.0478 Y61.9987 
G01 X228.0729 Y62.0594 
G01 X228.0729 Y83.5804 
G01 X228.0478 Y83.6411 
G01 X228.0013 Y83.6876 
G01 X215.6411 Y96.0478 
G01 X215.5804 Y96.0729 
G01 X179.8156 Y96.0729 
G01 X179.4748 Y96.2140 
G01 X177.3476 Y98.3412 
G01 X177.0404 Y98.6485 
G01 X176.8993 Y98.9892 
G01 X176.8993 Y107.7109 
G01 X176.8741 Y107.7716 
G01 X176.8277 Y107.8180 
G01 X176.7670 Y107.8431 
G01 X46.1898 Y107.8431 
G01 X46.1291 Y107.8180 
G01 X46.0827 Y107.7716 
G01 X31.7860 Y93.4748 
G01 X31.5252 Y93.2140 
G01 X31.1844 Y93.0729 
G01 X1.0594 Y93.0729 
G01 X0.9987 Y93.0478 
G01 X0.9522 Y93.0013 
G01 X0.9271 Y92.9406 
G01 X0.9271 Y7.0594 
G01 X0.9522 Y6.9987 
G01 X0.9987 Y6.9522 
G01 X1.0594 Y6.9271 
G01 X90.1844 Y6.9271 
G01 X90.5252 Y6.7860 
G01 X90.7860 Y6.5252 
G01 X90.9271 Y6.1844 
G01 X90.9271 Y1.0594 
G01 X90.9522 Y0.9987 
G01 X90.9987 Y0.9522 
G01 X91.0594 Y0.9271 
G01 X227.9406 Y0.9271 
G01 X228.0013 Y0.9522 
G01 X228.0478 Y0.9987 
G01 X228.0729 Y1.0594 
G01 X228.0729 Y14.9406 
G01 X228.0478 Y15.0013 
G01 X228.0013 Y15.0478 
G01 X227.9406 Y15.0729 
G01 X225.1170 Y15.0729 
G01 X225.1063 Y15.0758 
G01 X225.0844 Y15.0729 
G01 X225.0624 Y15.0729 
G01 X225.0522 Y15.0686 
G01 X225.0411 Y15.0672 
G01 X225.0221 Y15.0562 
G01 X225.0017 Y15.0478 
G01 X224.9939 Y15.0399 
G01 X224.9843 Y15.0344 
G01 X224.9709 Y15.0169 
G01 X224.9553 Y15.0013 
G01 X224.9511 Y14.9911 
G01 X224.9443 Y14.9822 
G01 X224.9386 Y14.9610 
G01 X224.9302 Y14.9406 
G01 X224.9302 Y14.9295 
G01 X224.9273 Y14.9188 
G01 X224.9302 Y14.8970 
G01 X224.9302 Y14.8750 
G01 X224.9344 Y14.8647 
G01 X224.9359 Y14.8537 
G01 X224.9469 Y14.8346 
G01 X224.9553 Y14.8143 
G01 X224.9631 Y14.8064 
G01 X224.9687 Y14.7968 
G01 X224.9862 Y14.7834 
G01 X225.0017 Y14.7678 
G01 X225.0120 Y14.7636 
G01 X225.0208 Y14.7568 
G01 X225.0421 Y14.7511 
G01 X225.0624 Y14.7427 
G01 X225.0735 Y14.7427 
G01 X225.1298 Y14.7276 
G01 X225.7973 Y14.3423 
G01 X226.3423 Y13.7973 
G01 X226.7276 Y13.1298 
G01 X226.9271 Y12.3854 
G01 X226.9271 Y11.6146 
G01 X226.7276 Y10.8702 
G01 X226.3423 Y10.2027 
G01 X225.7973 Y9.6577 
G01 X225.1298 Y9.2724 
G01 X224.3854 Y9.0729 
G01 X223.6146 Y9.0729 
G01 X222.8702 Y9.2724 
G01 X222.2027 Y9.6577 
G01 X221.6577 Y10.2027 
G01 X221.2724 Y10.8702 
G01 X221.0729 Y11.6146 
G01 X221.0729 Y12.3854 
G01 X221.2724 Y13.1298 
G01 X221.6577 Y13.7973 
G01 X222.2027 Y14.3423 
G01 X222.8702 Y14.7276 
G01 X222.9265 Y14.7427 
G01 X222.9376 Y14.7427 
G01 X222.9579 Y14.7511 
G01 X222.9792 Y14.7568 
G01 X222.9880 Y14.7636 
G01 X222.9983 Y14.7678 
G01 X223.0138 Y14.7834 
G01 X223.0313 Y14.7968 
G01 X223.0368 Y14.8064 
G01 X223.0447 Y14.8143 
G01 X223.0531 Y14.8346 
G01 X223.0641 Y14.8537 
G01 X223.0656 Y14.8647 
G01 X223.0698 Y14.8750 
G01 X223.0698 Y14.8970 
G01 X223.0727 Y14.9188 
G01 X223.0698 Y14.9295 
G01 X223.0698 Y14.9406 
G01 X223.0614 Y14.9610 
G01 X223.0557 Y14.9822 
G01 X223.0489 Y14.9911 
G01 X223.0447 Y15.0013 
G01 X223.0291 Y15.0169 
G01 X223.0157 Y15.0344 
G01 X223.0061 Y15.0399 
G01 X222.9983 Y15.0478 
G01 X222.9779 Y15.0562 
G01 X222.9588 Y15.0672 
G01 X222.9478 Y15.0686 
G01 X222.9376 Y15.0729 
G01 X222.9156 Y15.0729 
G01 X222.8937 Y15.0758 
G01 X222.8830 Y15.0729 
G01 X198.8156 Y15.0729 
G01 X198.4748 Y15.2140 
G01 X196.4748 Y17.2140 
G01 X196.2140 Y17.4748 
G01 X196.0729 Y17.8156 
G01 X196.0729 Y37.1844 
G01 X196.2140 Y37.5252 
G01 X200.4397 Y41.7508 
G01 X200.4648 Y41.8115 
G01 X200.4648 Y41.8771 
G01 X200.4397 Y41.9378 
G01 X200.3932 Y41.9843 
G01 X200.3325 Y42.0094 
G01 X193.4459 Y42.0094 
G01 X193.3852 Y41.9843 
G01 X193.3387 Y41.9378 
G01 X191.7497 Y40.3488 
G01 X191.7246 Y40.2881 
G01 X191.7246 Y39.6135 
G01 X191.7497 Y39.5528 
G01 X191.7955 Y39.5070 
G01 X191.8569 Y39.4812 
G01 X192.0433 Y39.4040 
G01 X192.1970 Y39.2503 
G01 X192.2801 Y39.0496 
G01 X192.2801 Y36.9203 
G01 X192.2800 Y36.8875 
G01 X192.2926 Y36.8570 
G01 X192.3050 Y36.8267 
G01 X192.3282 Y36.8034 
G01 X192.3514 Y36.7802 
G01 X192.3559 Y36.7782 
G01 X192.3858 Y36.7658 
G01 X192.4162 Y36.7531 
G01 X192.5551 Y36.6957 
G01 X192.6630 Y36.5880 
G01 X192.6861 Y36.5648 
G01 X192.7092 Y36.5416 
G01 X192.8160 Y36.4349 
G01 X192.8747 Y36.2934 
G01 X192.8871 Y36.2632 
G01 X192.8996 Y36.2329 
G01 X192.9572 Y36.0942 
G01 X192.9573 Y35.9410 
G01 X192.9572 Y35.9086 
G01 X192.9571 Y35.8755 
G01 X192.9572 Y35.7254 
G01 X192.9567 Y35.6912 
G01 X192.9272 Y22.0314 
G01 X192.9271 Y21.9991 
G01 X192.9270 Y21.9659 
G01 X192.9271 Y21.8158 
G01 X192.8687 Y21.6743 
G01 X192.8562 Y21.6445 
G01 X192.8435 Y21.6139 
G01 X192.7860 Y21.4750 
G01 X192.6784 Y21.3672 
G01 X192.6552 Y21.3441 
G01 X192.6320 Y21.3209 
G01 X192.5253 Y21.2142 
G01 X192.3838 Y21.1554 
G01 X192.3536 Y21.1430 
G01 X192.3232 Y21.1305 
G01 X192.1334 Y21.0518 
G01 X192.0870 Y21.0053 
G01 X192.0619 Y20.9447 
G01 X192.0619 Y20.8790 
G01 X192.0870 Y20.8183 
G01 X192.1970 Y20.7083 
G01 X192.2801 Y20.5076 
G01 X192.2801 Y18.2904 
G01 X192.1970 Y18.0897 
G01 X192.1597 Y18.0524 
G01 X192.1346 Y17.9917 
G01 X192.1346 Y15.6870 
G01 X191.9838 Y15.3229 
G01 X191.6587 Y14.9978 
G01 X189.2498 Y12.5889 
G01 X188.9711 Y12.3102 
G01 X188.6070 Y12.1594 
G01 X104.5039 Y12.1594 
G01 X104.4432 Y12.1343 
G01 X104.3968 Y12.0878 
G01 X103.8333 Y11.5244 
G01 X102.4867 Y11.5244 
G01 X101.5344 Y12.4767 
G01 X101.5344 Y13.8233 
G01 X102.4867 Y14.7756 
G01 X103.8333 Y14.7756 
G01 X104.3968 Y14.2122 
G01 X104.4327 Y14.1762 
G01 X104.4432 Y14.1657 
G01 X104.5039 Y14.1406 
G01 X187.9641 Y14.1406 
G01 X188.0248 Y14.1657 
G01 X188.0713 Y14.2122 
G01 X190.1283 Y16.2692 
G01 X190.1534 Y16.3299 
G01 X190.1534 Y17.7206 
G01 X190.1283 Y17.7813 
G01 X190.0818 Y17.8278 
G01 X190.0211 Y17.8529 
G01 X189.6254 Y17.8529 
G01 X189.5575 Y17.8810 
G01 X189.4968 Y17.9061 
G01 X189.4312 Y17.9061 
G01 X189.3026 Y17.8529 
G01 X187.0854 Y17.8529 
G01 X186.8847 Y17.9360 
G01 X186.7310 Y18.0897 
G01 X186.6479 Y18.2904 
G01 X186.6479 Y20.5076 
G01 X186.7310 Y20.7083 
G01 X186.8370 Y20.8143 
G01 X186.8621 Y20.8750 
G01 X186.8621 Y20.9406 
G01 X186.8377 Y20.9996 
G01 X186.7905 Y21.0478 
G01 X186.7299 Y21.0729 
G01 X180.8622 Y21.0729 
G01 X180.8015 Y21.0478 
G01 X180.7558 Y21.0020 
G01 X180.7299 Y20.9406 
G01 X180.7299 Y20.8750 
G01 X180.7550 Y20.8143 
G01 X180.8008 Y20.7686 
G01 X180.8622 Y20.7427 
G01 X180.9418 Y20.7097 
G01 X181.3767 Y20.2748 
G01 X181.6121 Y19.7065 
G01 X181.6121 Y19.0915 
G01 X181.3767 Y18.5232 
G01 X180.9418 Y18.0883 
G01 X180.3735 Y17.8529 
G01 X179.7585 Y17.8529 
G01 X179.1902 Y18.0883 
G01 X178.7553 Y18.5232 
G01 X178.7211 Y18.6057 
G01 X178.7190 Y18.6189 
G01 X178.7086 Y18.6358 
G01 X178.7011 Y18.6541 
G01 X178.6916 Y18.6635 
G01 X178.6847 Y18.6749 
G01 X178.6686 Y18.6865 
G01 X178.6546 Y18.7006 
G01 X178.6423 Y18.7057 
G01 X178.6316 Y18.7135 
G01 X178.6123 Y18.7181 
G01 X178.5939 Y18.7257 
G01 X178.5806 Y18.7257 
G01 X178.5677 Y18.7288 
G01 X178.5481 Y18.7257 
G01 X178.5282 Y18.7257 
G01 X178.5160 Y18.7206 
G01 X178.5028 Y18.7185 
G01 X178.4859 Y18.7082 
G01 X178.4676 Y18.7006 
G01 X178.4582 Y18.6912 
G01 X178.4468 Y18.6842 
G01 X178.4352 Y18.6682 
G01 X178.4211 Y18.6541 
G01 X178.4160 Y18.6418 
G01 X178.2850 Y18.5103 
G01 X178.1367 Y18.4025 
G01 X178.0307 Y18.3485 
G01 X178.0572 Y18.4476 
G01 X178.0967 Y18.4677 
G01 X178.2354 Y18.5684 
G01 X178.3566 Y18.6896 
G01 X178.4573 Y18.8283 
G01 X178.5351 Y18.9810 
G01 X178.5881 Y19.1440 
G01 X178.6149 Y19.3133 
G01 X178.6149 Y19.4847 
G01 X178.5881 Y19.6540 
G01 X178.5351 Y19.8170 
G01 X178.4573 Y19.9697 
G01 X178.3566 Y20.1084 
G01 X178.2354 Y20.2296 
G01 X178.0967 Y20.3303 
G01 X177.9440 Y20.4081 
G01 X177.7810 Y20.4611 
G01 X177.7673 Y20.4633 
G01 X177.7673 Y20.5404 
G01 X177.7988 Y20.5354 
G01 X177.9733 Y20.4787 
G01 X178.1367 Y20.3955 
G01 X178.2850 Y20.2877 
G01 X178.4147 Y20.1580 
G01 X178.4211 Y20.1439 
G01 X178.4352 Y20.1298 
G01 X178.4468 Y20.1138 
G01 X178.4582 Y20.1068 
G01 X178.4676 Y20.0974 
G01 X178.4859 Y20.0898 
G01 X178.5028 Y20.0795 
G01 X178.5160 Y20.0774 
G01 X178.5282 Y20.0723 
G01 X178.5481 Y20.0723 
G01 X178.5677 Y20.0692 
G01 X178.5806 Y20.0723 
G01 X178.5939 Y20.0723 
G01 X178.6123 Y20.0799 
G01 X178.6316 Y20.0845 
G01 X178.6423 Y20.0923 
G01 X178.6546 Y20.0974 
G01 X178.6686 Y20.1115 
G01 X178.6847 Y20.1231 
G01 X178.6916 Y20.1345 
G01 X178.7011 Y20.1439 
G01 X178.7086 Y20.1622 
G01 X178.7190 Y20.1791 
G01 X178.7211 Y20.1923 
G01 X178.7553 Y20.2748 
G01 X179.1902 Y20.7097 
G01 X179.2698 Y20.7427 
G01 X179.3290 Y20.7672 
G01 X179.3770 Y20.8143 
G01 X179.4021 Y20.8750 
G01 X179.4021 Y20.9406 
G01 X179.3777 Y20.9996 
G01 X179.3305 Y21.0478 
G01 X179.2698 Y21.0729 
G01 X176.2163 Y21.0729 
G01 X176.1835 Y21.0730 
G01 X176.0314 Y21.0728 
G01 X175.9990 Y21.0729 
G01 X175.9659 Y21.0730 
G01 X175.8158 Y21.0729 
G01 X175.6743 Y21.1313 
G01 X175.6434 Y21.1442 
G01 X175.6139 Y21.1565 
G01 X175.4750 Y21.2140 
G01 X175.3671 Y21.3216 
G01 X175.3440 Y21.3448 
G01 X175.3209 Y21.3681 
G01 X175.2142 Y21.4747 
G01 X175.1554 Y21.6162 
G01 X175.1430 Y21.6464 
G01 X175.1305 Y21.6768 
G01 X175.0730 Y21.8155 
G01 X175.0728 Y21.9687 
G01 X175.0729 Y22.0010 
G01 X175.0730 Y22.0342 
G01 X175.0729 Y22.1842 
G01 X175.0734 Y22.2184 
G01 X175.1029 Y35.8783 
G01 X175.1030 Y35.9106 
G01 X175.1031 Y35.9438 
G01 X175.1030 Y36.0939 
G01 X175.1615 Y36.2354 
G01 X175.1741 Y36.2658 
G01 X175.1867 Y36.2958 
G01 X175.2441 Y36.4346 
G01 X175.3518 Y36.5425 
G01 X175.3750 Y36.5656 
G01 X175.3982 Y36.5887 
G01 X175.5048 Y36.6955 
G01 X175.6464 Y36.7543 
G01 X175.6766 Y36.7667 
G01 X175.7069 Y36.7792 
G01 X175.8456 Y36.8367 
G01 X175.9988 Y36.8368 
G01 X176.0311 Y36.8368 
G01 X176.0643 Y36.8367 
G01 X176.6168 Y36.8368 
G01 X176.6412 Y36.8469 
G01 X176.6775 Y36.8619 
G01 X176.7239 Y36.9083 
G01 X176.7383 Y36.9432 
G01 X176.7491 Y36.9690 
G01 X176.7491 Y37.0347 
G01 X176.7389 Y37.0591 
G01 X176.7239 Y37.0954 
G01 X176.6775 Y37.1418 
G01 X176.6373 Y37.1820 
G01 X176.5295 Y37.3303 
G01 X176.4463 Y37.4937 
G01 X176.3896 Y37.6682 
G01 X176.3846 Y37.6997 
G01 X176.4617 Y37.6997 
G01 X176.4639 Y37.6860 
